;This Gcode has been generated specifically for the LulzBot Mini
;Basic settings: Layer height: 0.38 Walls: 1 Fill: 20
;Filament Diameter: 2.85
;Nozzle Size: 0.5
G21                          ; metric values
G90                          ; absolute positioning
M82                          ; set extruder to absolute mode
M107                         ; start with the fan off
G92 E0                       ; set extruder position to 0
M140 S60; get bed heating up
G28                          ; home all
M109 S140                    ; set to cleaning temp and wait
G1 Z150 E-30 F75             ; suck up XXmm of filament
M109 S140                    ; heat up rest of way
G1 X45 Y174 F11520           ; move behind scraper
G1 Z0  F1200                 ; CRITICAL: set Z to height of top of scraper
G1 X45 Y174 Z-.5 F4000       ; wiping ; plunge into wipe pad
G1 X55 Y172 Z-.5 F4000       ; wiping
G1 X45 Y174 Z0 F4000         ; wiping
G1 X55 Y172 F4000            ; wiping
G1 X45 Y174 F4000            ; wiping
G1 X55 Y172 F4000            ; wiping
G1 X45 Y174 F4000            ; wiping
G1 X55 Y172 F4000            ; wiping
G1 X60 Y174 F4000            ; wiping
G1 X80 Y172 F4000            ; wiping
G1 X60 Y174 F4000            ; wiping
G1 X80 Y172 F4000            ; wiping
G1 X60 Y174 F4000            ; wiping
G1 X90 Y172 F4000            ; wiping
G1 X80 Y174 F4000            ; wiping
G1 X100 Y172 F4000           ; wiping
G1 X80 Y174 F4000            ; wiping
G1 X100 Y172 F4000           ; wiping
G1 X80 Y174 F4000            ; wiping
G1 X100 Y172 F4000           ; wiping
G1 X110 Y174 F4000           ; wiping
G1 X100 Y172 F4000           ; wiping
G1 X110 Y174 F4000           ; wiping
G1 X100 Y172 F4000           ; wiping
G1 X110 Y174 F4000           ; wiping
G1 X115 Y172 Z-0.5 F1000     ; wipe slower and bury noz in cleanish area
G1 Z10                       ; raise z
G28 X0 Y0                    ; home x and y
M109 S140                    ; set to probing temp
M204 S300                    ; Set probing acceleration
G29                          ; Probe
M204 S2000                   ; Restore standard acceleration
G1 X5 Y15 Z10 F5000          ; get out the way
G4 S1                        ; pause
M400                         ; clear buffer
M109 S205    ; set extruder temp and wait
G4 S15                       ; wait for bed to temp up
G1 Z2 E0 F75                 ; extrude filament back into nozzle
M140 S60; get bed temping up during first layer

;Layer count: 67
;LAYER:0
M107
G0 F10500 X66.855 Y64.846 Z0.425
;TYPE:SKIRT
G1 F900 X67.989 Y63.851 E0.06282
G1 X69.440 Y63.398 E0.12611
G1 X70.246 Y63.262 E0.16014
G1 X71.115 Y63.239 E0.19634
G1 X71.205 Y63.242 E0.20009
G1 X71.591 Y63.241 E0.21616
G1 X71.621 Y63.242 E0.21741
G1 X72.014 Y63.241 E0.23378
G1 X72.044 Y63.242 E0.23502
G1 X72.436 Y63.241 E0.25135
G1 X72.466 Y63.242 E0.25260
G1 X72.861 Y63.241 E0.26904
G1 X72.891 Y63.242 E0.27029
G1 X73.283 Y63.241 E0.28662
G1 X73.313 Y63.242 E0.28787
G1 X73.708 Y63.241 E0.30431
G1 X73.738 Y63.242 E0.30556
G1 X74.131 Y63.241 E0.32193
G1 X74.161 Y63.242 E0.32318
G1 X74.553 Y63.241 E0.33950
G1 X74.583 Y63.242 E0.34075
G1 X74.978 Y63.241 E0.35720
G1 X75.008 Y63.242 E0.35845
G1 X75.401 Y63.241 E0.37481
G1 X75.431 Y63.242 E0.37606
G1 X75.823 Y63.241 E0.39238
G1 X75.853 Y63.242 E0.39363
G1 X76.248 Y63.241 E0.41008
G1 X76.278 Y63.242 E0.41133
G1 X76.671 Y63.241 E0.42769
G1 X76.701 Y63.242 E0.42894
G1 X77.093 Y63.241 E0.44526
G1 X77.123 Y63.242 E0.44651
G1 X77.518 Y63.241 E0.46296
G1 X77.548 Y63.242 E0.46421
G1 X77.941 Y63.241 E0.48057
G1 X77.971 Y63.242 E0.48182
G1 X78.363 Y63.241 E0.49815
G1 X78.393 Y63.242 E0.49940
G1 X78.788 Y63.241 E0.51584
G1 X78.818 Y63.242 E0.51709
G1 X79.211 Y63.241 E0.53346
G1 X79.241 Y63.242 E0.53471
G1 X79.634 Y63.241 E0.55107
G1 X79.667 Y63.242 E0.55244
G1 X80.445 Y63.241 E0.58484
G1 X80.474 Y63.242 E0.58605
G1 X80.865 Y63.241 E0.60233
G1 X80.895 Y63.242 E0.60358
G1 X81.304 Y63.241 E0.62061
G1 X82.671 Y63.287 E0.67756
G1 X83.507 Y63.489 E0.71337
G1 X83.809 Y63.607 E0.72687
G1 X84.113 Y63.488 E0.74046
G1 X84.946 Y63.290 E0.77611
G1 X86.221 Y63.242 E0.82924
G1 X86.790 Y63.241 E0.85293
G1 X86.820 Y63.242 E0.85418
G1 X87.215 Y63.241 E0.87063
G1 X87.245 Y63.242 E0.87188
G1 X87.636 Y63.241 E0.88816
G1 X87.666 Y63.242 E0.88941
G1 X88.062 Y63.241 E0.90590
G1 X88.092 Y63.242 E0.90715
G1 X88.485 Y63.241 E0.92351
G1 X88.515 Y63.242 E0.92476
G1 X88.901 Y63.241 E0.94083
G1 X89.740 Y63.261 E0.97578
G1 X90.547 Y63.394 E1.00983
G1 X92.016 Y63.850 E1.07388
G1 X93.154 Y64.855 E1.13709
G1 X94.149 Y65.989 E1.19991
G1 X94.602 Y67.440 E1.26320
G1 X94.738 Y68.246 E1.29724
G1 X94.761 Y69.133 E1.33418
G1 X94.712 Y70.516 E1.39181
G1 X94.511 Y71.348 E1.42744
G1 X94.393 Y71.650 E1.44094
G1 X94.512 Y71.954 E1.45454
G1 X94.710 Y72.787 E1.49019
G1 X94.761 Y74.144 E1.54673
G1 X94.713 Y75.590 E1.60697
G1 X94.511 Y76.428 E1.64287
G1 X94.393 Y76.730 E1.65637
G1 X94.512 Y77.033 E1.66992
G1 X94.710 Y77.866 E1.70557
G1 X94.761 Y79.221 E1.76203
G1 X94.713 Y80.669 E1.82235
G1 X94.511 Y81.507 E1.85825
G1 X94.393 Y81.809 E1.87175
G1 X94.512 Y82.113 E1.88534
G1 X94.710 Y82.946 E1.92099
G1 X94.758 Y84.221 E1.97412
G1 X94.759 Y84.790 E1.99781
G1 X94.758 Y84.820 E1.99906
G1 X94.759 Y85.215 E2.01551
G1 X94.758 Y85.245 E2.01676
G1 X94.759 Y85.636 E2.03304
G1 X94.758 Y85.666 E2.03429
G1 X94.759 Y86.062 E2.05078
G1 X94.758 Y86.086 E2.05178
G1 X94.759 Y86.485 E2.06839
G1 X94.758 Y86.512 E2.06951
G1 X94.759 Y86.901 E2.08571
G1 X94.739 Y87.740 E2.12066
G1 X94.606 Y88.547 E2.15471
G1 X94.150 Y90.016 E2.21876
G1 X93.145 Y91.154 E2.28197
G1 X92.011 Y92.149 E2.34479
G1 X90.560 Y92.602 E2.40808
G1 X89.726 Y92.743 E2.44330
G1 X88.472 Y92.760 E2.49552
G1 X88.412 Y92.758 E2.49802
G1 X88.024 Y92.759 E2.51417
G1 X87.994 Y92.758 E2.51542
G1 X87.601 Y92.759 E2.53179
G1 X87.571 Y92.758 E2.53304
G1 X87.180 Y92.759 E2.54932
G1 X87.150 Y92.758 E2.55057
G1 X86.754 Y92.759 E2.56706
G1 X86.724 Y92.758 E2.56831
G1 X86.315 Y92.759 E2.58534
G1 X84.948 Y92.713 E2.64229
G1 X84.112 Y92.511 E2.67810
G1 X83.810 Y92.393 E2.69160
G1 X83.506 Y92.512 E2.70519
G1 X82.673 Y92.710 E2.74084
G1 X81.397 Y92.758 E2.79401
G1 X80.827 Y92.759 E2.81774
G1 X80.797 Y92.758 E2.81899
G1 X80.404 Y92.759 E2.83536
G1 X80.374 Y92.758 E2.83661
G1 X80.012 Y92.759 E2.85168
G1 X79.916 Y92.758 E2.85568
G1 X79.520 Y92.759 E2.87217
G1 X79.490 Y92.758 E2.87342
G1 X79.097 Y92.759 E2.88978
G1 X79.067 Y92.758 E2.89103
G1 X78.675 Y92.759 E2.90735
G1 X78.645 Y92.758 E2.90860
G1 X78.250 Y92.759 E2.92505
G1 X78.220 Y92.758 E2.92630
G1 X77.827 Y92.759 E2.94266
G1 X77.797 Y92.758 E2.94391
G1 X77.405 Y92.759 E2.96024
G1 X77.375 Y92.758 E2.96148
G1 X76.980 Y92.759 E2.97793
G1 X76.950 Y92.758 E2.97918
G1 X76.557 Y92.759 E2.99555
G1 X76.527 Y92.758 E2.99680
G1 X76.135 Y92.759 E3.01312
G1 X76.105 Y92.758 E3.01437
G1 X75.710 Y92.759 E3.03081
G1 X75.680 Y92.758 E3.03206
G1 X75.287 Y92.759 E3.04843
G1 X75.257 Y92.758 E3.04968
G1 X74.865 Y92.759 E3.06600
G1 X74.835 Y92.758 E3.06725
G1 X74.440 Y92.759 E3.08370
G1 X74.410 Y92.758 E3.08495
G1 X74.017 Y92.759 E3.10131
G1 X73.987 Y92.758 E3.10256
G1 X73.595 Y92.759 E3.11888
G1 X73.565 Y92.758 E3.12013
G1 X73.170 Y92.759 E3.13658
G1 X73.140 Y92.758 E3.13783
G1 X72.748 Y92.759 E3.15415
G1 X72.718 Y92.758 E3.15540
G1 X72.323 Y92.759 E3.17185
G1 X72.293 Y92.758 E3.17310
G1 X71.900 Y92.759 E3.18946
G1 X71.870 Y92.758 E3.19071
G1 X71.477 Y92.759 E3.20708
G1 X71.447 Y92.758 E3.20833
G1 X71.058 Y92.759 E3.22452
G1 X70.256 Y92.738 E3.25793
G1 X69.453 Y92.606 E3.29181
G1 X67.984 Y92.150 E3.35586
G1 X66.846 Y91.145 E3.41907
G1 X65.851 Y90.011 E3.48189
G1 X65.398 Y88.560 E3.54518
G1 X65.262 Y87.754 E3.57922
G1 X65.239 Y86.885 E3.61541
G1 X65.242 Y86.795 E3.61916
G1 X65.241 Y86.409 E3.63523
G1 X65.242 Y86.379 E3.63648
G1 X65.241 Y85.986 E3.65285
G1 X65.242 Y85.956 E3.65410
G1 X65.241 Y85.564 E3.67042
G1 X65.242 Y85.534 E3.67167
G1 X65.241 Y85.139 E3.68812
G1 X65.242 Y85.092 E3.69007
G1 X65.241 Y84.717 E3.70569
G1 X65.242 Y84.687 E3.70694
G1 X65.241 Y84.273 E3.72418
G1 X65.288 Y82.944 E3.77955
G1 X65.489 Y82.112 E3.81519
G1 X65.607 Y81.809 E3.82873
G1 X65.488 Y81.506 E3.84228
G1 X65.290 Y80.673 E3.87793
G1 X65.242 Y79.396 E3.93114
G1 X65.241 Y78.788 E3.95646
G1 X65.242 Y78.758 E3.95771
G1 X65.241 Y78.366 E3.97403
G1 X65.242 Y78.336 E3.97528
G1 X65.241 Y77.943 E3.99164
G1 X65.242 Y77.913 E3.99289
G1 X65.241 Y77.520 E4.00926
G1 X65.242 Y77.490 E4.01051
G1 X65.241 Y77.097 E4.02687
G1 X65.242 Y77.058 E4.02849
G1 X65.241 Y76.675 E4.04444
G1 X65.242 Y76.642 E4.04582
G1 X65.241 Y76.250 E4.06214
G1 X65.242 Y76.218 E4.06347
G1 X65.241 Y75.827 E4.07975
G1 X65.242 Y75.795 E4.08109
G1 X65.241 Y75.405 E4.09732
G1 X65.242 Y75.368 E4.09887
G1 X65.241 Y74.980 E4.11502
G1 X65.242 Y74.933 E4.11698
G1 X65.241 Y74.557 E4.13263
G1 X65.242 Y74.525 E4.13397
G1 X65.241 Y74.135 E4.15021
G1 X65.242 Y74.102 E4.15158
G1 X65.241 Y73.710 E4.16790
G1 X65.242 Y73.678 E4.16924
G1 X65.241 Y73.287 E4.18552
G1 X65.242 Y73.255 E4.18685
G1 X65.241 Y72.865 E4.20309
G1 X65.242 Y72.832 E4.20446
G1 X65.241 Y72.440 E4.22079
G1 X65.242 Y72.408 E4.22212
G1 X65.241 Y72.017 E4.23840
G1 X65.242 Y71.978 E4.24002
G1 X65.241 Y71.595 E4.25597
G1 X65.242 Y71.562 E4.25735
G1 X65.241 Y71.170 E4.27367
G1 X65.242 Y71.138 E4.27500
G1 X65.241 Y70.748 E4.29124
G1 X65.242 Y70.717 E4.29253
G1 X65.241 Y70.323 E4.30894
G1 X65.242 Y70.293 E4.31019
G1 X65.241 Y69.900 E4.32655
G1 X65.242 Y69.870 E4.32780
G1 X65.241 Y69.477 E4.34416
G1 X65.242 Y69.447 E4.34541
G1 X65.241 Y69.058 E4.36161
G1 X65.262 Y68.256 E4.39502
G1 X65.394 Y67.453 E4.42890
G1 X65.850 Y65.984 E4.49294
G1 X66.855 Y64.846 E4.55616
G0 F10500 X67.298 Y65.289
G1 F900 X68.302 Y64.408 E4.61178
G1 X69.586 Y64.008 E4.66778
G1 X70.306 Y63.886 E4.69818
G1 X71.114 Y63.865 E4.73184
G1 X71.181 Y63.867 E4.73463
G1 X71.584 Y63.866 E4.75141
G1 X71.612 Y63.867 E4.75258
G1 X72.007 Y63.866 E4.76902
G1 X72.035 Y63.867 E4.77019
G1 X72.428 Y63.866 E4.78655
G1 X72.469 Y63.867 E4.78826
G1 X72.854 Y63.866 E4.80429
G1 X72.882 Y63.867 E4.80546
G1 X73.275 Y63.866 E4.82182
G1 X73.316 Y63.867 E4.82353
G1 X73.701 Y63.866 E4.83956
G1 X73.729 Y63.867 E4.84073
G1 X74.124 Y63.866 E4.85717
G1 X74.152 Y63.867 E4.85834
G1 X74.545 Y63.866 E4.87470
G1 X74.586 Y63.867 E4.87641
G1 X74.971 Y63.866 E4.89244
G1 X74.999 Y63.867 E4.89361
G1 X75.394 Y63.866 E4.91006
G1 X75.422 Y63.867 E4.91122
G1 X75.815 Y63.866 E4.92759
G1 X75.856 Y63.867 E4.92929
G1 X76.241 Y63.866 E4.94532
G1 X76.269 Y63.867 E4.94649
G1 X76.664 Y63.866 E4.96294
G1 X76.692 Y63.867 E4.96410
G1 X77.085 Y63.866 E4.98047
G1 X77.126 Y63.867 E4.98218
G1 X77.511 Y63.866 E4.99821
G1 X77.539 Y63.867 E4.99937
G1 X77.934 Y63.866 E5.01582
G1 X77.962 Y63.867 E5.01699
G1 X78.355 Y63.866 E5.03335
G1 X78.396 Y63.867 E5.03506
G1 X78.781 Y63.866 E5.05109
G1 X78.809 Y63.867 E5.05226
G1 X79.204 Y63.866 E5.06870
G1 X79.232 Y63.867 E5.06987
G1 X79.627 Y63.866 E5.08632
G1 X79.657 Y63.867 E5.08757
G1 X80.437 Y63.866 E5.12004
G1 X80.476 Y63.867 E5.12167
G1 X80.857 Y63.866 E5.13753
G1 X80.898 Y63.867 E5.13924
G1 X81.294 Y63.866 E5.15573
G1 X82.587 Y63.910 E5.20960
G1 X83.319 Y64.086 E5.24095
G1 X83.811 Y64.279 E5.26295
G1 X84.301 Y64.086 E5.28488
G1 X85.031 Y63.912 E5.31613
G1 X86.233 Y63.867 E5.36621
G1 X86.782 Y63.866 E5.38907
G1 X86.823 Y63.867 E5.39078
G1 X87.207 Y63.866 E5.40677
G1 X87.248 Y63.867 E5.40847
G1 X87.629 Y63.866 E5.42434
G1 X87.670 Y63.867 E5.42605
G1 X88.054 Y63.866 E5.44203
G1 X88.095 Y63.867 E5.44374
G1 X88.477 Y63.866 E5.45965
G1 X88.518 Y63.867 E5.46136
G1 X88.894 Y63.866 E5.47701
G1 X89.681 Y63.885 E5.50979
G1 X90.402 Y64.004 E5.54022
G1 X91.703 Y64.407 E5.59693
G1 X92.711 Y65.298 E5.65295
G1 X93.592 Y66.302 E5.70856
G1 X93.992 Y67.586 E5.76456
G1 X94.114 Y68.306 E5.79497
G1 X94.136 Y69.130 E5.82929
G1 X94.089 Y70.431 E5.88349
G1 X93.914 Y71.160 E5.91471
G1 X93.721 Y71.652 E5.93672
G1 X93.914 Y72.142 E5.95864
G1 X94.088 Y72.872 E5.98989
G1 X94.135 Y74.145 E6.04293
G1 X94.091 Y75.505 E6.09959
G1 X93.914 Y76.240 E6.13107
G1 X93.722 Y76.732 E6.15306
G1 X93.914 Y77.221 E6.17493
G1 X94.088 Y77.951 E6.20618
G1 X94.135 Y79.223 E6.25918
G1 X94.091 Y80.584 E6.31588
G1 X93.914 Y81.319 E6.34736
G1 X93.721 Y81.811 E6.36936
G1 X93.914 Y82.301 E6.39129
G1 X94.088 Y83.031 E6.42254
G1 X94.133 Y84.233 E6.47262
G1 X94.134 Y84.782 E6.49548
G1 X94.133 Y84.823 E6.49719
G1 X94.134 Y85.207 E6.51318
G1 X94.133 Y85.248 E6.51489
G1 X94.134 Y85.629 E6.53075
G1 X94.133 Y85.670 E6.53246
G1 X94.134 Y86.054 E6.54845
G1 X94.133 Y86.086 E6.54978
G1 X94.134 Y86.477 E6.56606
G1 X94.133 Y86.503 E6.56714
G1 X94.134 Y86.894 E6.58343
G1 X94.115 Y87.681 E6.61620
G1 X93.996 Y88.402 E6.64663
G1 X93.593 Y89.703 E6.70334
G1 X92.702 Y90.711 E6.75936
G1 X91.698 Y91.592 E6.81498
G1 X90.414 Y91.992 E6.87097
G1 X89.670 Y92.119 E6.90240
G1 X88.477 Y92.135 E6.95208
G1 X88.405 Y92.133 E6.95508
G1 X88.032 Y92.134 E6.97061
G1 X87.991 Y92.133 E6.97232
G1 X87.609 Y92.134 E6.98822
G1 X87.568 Y92.133 E6.98993
G1 X87.187 Y92.134 E7.00579
G1 X87.146 Y92.133 E7.00750
G1 X86.762 Y92.134 E7.02349
G1 X86.721 Y92.133 E7.02520
G1 X86.325 Y92.134 E7.04169
G1 X85.032 Y92.090 E7.09556
G1 X84.300 Y91.914 E7.12690
G1 X83.808 Y91.721 E7.14891
G1 X83.318 Y91.914 E7.17084
G1 X82.588 Y92.088 E7.20208
G1 X81.384 Y92.133 E7.25225
G1 X80.834 Y92.134 E7.27515
G1 X80.794 Y92.133 E7.27682
G1 X80.412 Y92.134 E7.29272
G1 X80.371 Y92.133 E7.29443
G1 X80.015 Y92.134 E7.30925
G1 X79.922 Y92.133 E7.31313
G1 X79.527 Y92.134 E7.32957
G1 X79.499 Y92.133 E7.33074
G1 X79.104 Y92.134 E7.34719
G1 X79.076 Y92.133 E7.34835
G1 X78.683 Y92.134 E7.36472
G1 X78.642 Y92.133 E7.36643
G1 X78.257 Y92.134 E7.38246
G1 X78.229 Y92.133 E7.38362
G1 X77.834 Y92.134 E7.40007
G1 X77.806 Y92.133 E7.40124
G1 X77.413 Y92.134 E7.41760
G1 X77.372 Y92.133 E7.41931
G1 X76.987 Y92.134 E7.43534
G1 X76.959 Y92.133 E7.43651
G1 X76.564 Y92.134 E7.45295
G1 X76.536 Y92.133 E7.45412
G1 X76.143 Y92.134 E7.47048
G1 X76.102 Y92.133 E7.47219
G1 X75.717 Y92.134 E7.48822
G1 X75.689 Y92.133 E7.48939
G1 X75.294 Y92.134 E7.50584
G1 X75.266 Y92.133 E7.50700
G1 X74.873 Y92.134 E7.52337
G1 X74.832 Y92.133 E7.52507
G1 X74.447 Y92.134 E7.54110
G1 X74.419 Y92.133 E7.54227
G1 X74.024 Y92.134 E7.55872
G1 X73.996 Y92.133 E7.55988
G1 X73.603 Y92.134 E7.57625
G1 X73.562 Y92.133 E7.57796
G1 X73.177 Y92.134 E7.59399
G1 X73.149 Y92.133 E7.59515
G1 X72.756 Y92.134 E7.61152
G1 X72.715 Y92.133 E7.61322
G1 X72.330 Y92.134 E7.62925
G1 X72.302 Y92.133 E7.63042
G1 X71.907 Y92.134 E7.64687
G1 X71.879 Y92.133 E7.64804
G1 X71.484 Y92.134 E7.66448
G1 X71.456 Y92.133 E7.66565
G1 X71.065 Y92.134 E7.68193
G1 X70.315 Y92.115 E7.71317
G1 X69.598 Y91.996 E7.74343
G1 X68.297 Y91.593 E7.80014
G1 X67.289 Y90.702 E7.85616
G1 X66.408 Y89.698 E7.91178
G1 X66.008 Y88.414 E7.96777
G1 X65.886 Y87.694 E7.99818
G1 X65.865 Y86.886 E8.03183
G1 X65.867 Y86.810 E8.03500
G1 X65.866 Y86.416 E8.05141
G1 X65.867 Y86.388 E8.05257
G1 X65.866 Y85.993 E8.06902
G1 X65.867 Y85.965 E8.07019
G1 X65.866 Y85.572 E8.08655
G1 X65.867 Y85.531 E8.08826
G1 X65.866 Y85.146 E8.10429
G1 X65.867 Y85.118 E8.10545
G1 X65.866 Y84.725 E8.12182
G1 X65.867 Y84.684 E8.12353
G1 X65.866 Y84.284 E8.14018
G1 X65.911 Y83.029 E8.19247
G1 X66.086 Y82.300 E8.22369
G1 X66.279 Y81.808 E8.24569
G1 X66.086 Y81.318 E8.26762
G1 X65.912 Y80.588 E8.29887
G1 X65.867 Y79.384 E8.34903
G1 X65.866 Y78.796 E8.37352
G1 X65.867 Y78.768 E8.37468
G1 X65.866 Y78.373 E8.39113
G1 X65.867 Y78.345 E8.39230
G1 X65.866 Y77.950 E8.40875
G1 X65.867 Y77.922 E8.40991
G1 X65.866 Y77.527 E8.42636
G1 X65.867 Y77.499 E8.42753
G1 X65.866 Y77.104 E8.44397
G1 X65.867 Y77.076 E8.44514
G1 X65.866 Y76.683 E8.46150
G1 X65.867 Y76.642 E8.46321
G1 X65.866 Y76.257 E8.47924
G1 X65.867 Y76.218 E8.48087
G1 X65.866 Y75.834 E8.49685
G1 X65.867 Y75.795 E8.49848
G1 X65.866 Y75.413 E8.51438
G1 X65.867 Y75.372 E8.51609
G1 X65.866 Y74.987 E8.53212
G1 X65.867 Y74.948 E8.53375
G1 X65.866 Y74.564 E8.54974
G1 X65.867 Y74.525 E8.55136
G1 X65.866 Y74.143 E8.56727
G1 X65.867 Y74.086 E8.56964
G1 X65.866 Y73.717 E8.58500
G1 X65.867 Y73.678 E8.58663
G1 X65.866 Y73.294 E8.60262
G1 X65.867 Y73.255 E8.60424
G1 X65.866 Y72.873 E8.62015
G1 X65.867 Y72.832 E8.62186
G1 X65.866 Y72.447 E8.63789
G1 X65.867 Y72.408 E8.63951
G1 X65.866 Y72.024 E8.65550
G1 X65.867 Y71.985 E8.65712
G1 X65.866 Y71.603 E8.67303
G1 X65.867 Y71.562 E8.67474
G1 X65.866 Y71.177 E8.69077
G1 X65.867 Y71.138 E8.69239
G1 X65.866 Y70.756 E8.70830
G1 X65.867 Y70.715 E8.71001
G1 X65.866 Y70.330 E8.72604
G1 X65.867 Y70.294 E8.72754
G1 X65.866 Y69.907 E8.74365
G1 X65.867 Y69.879 E8.74482
G1 X65.866 Y69.484 E8.76126
G1 X65.867 Y69.453 E8.76256
G1 X65.866 Y69.065 E8.77871
G1 X65.885 Y68.315 E8.80995
G1 X66.004 Y67.598 E8.84021
G1 X66.407 Y66.297 E8.89692
G1 X67.298 Y65.289 E8.95294
G0 F10500 X67.740 Y65.733
G1 F900 X68.614 Y64.965 E9.00139
G1 X69.732 Y64.617 E9.05014
G1 X70.367 Y64.509 E9.07696
G1 X71.114 Y64.490 E9.10807
G1 X71.192 Y64.492 E9.11132
G1 X71.576 Y64.491 E9.12731
G1 X71.614 Y64.492 E9.12889
G1 X71.999 Y64.491 E9.14492
G1 X72.037 Y64.492 E9.14651
G1 X72.420 Y64.491 E9.16245
G1 X72.458 Y64.492 E9.16404
G1 X72.846 Y64.491 E9.18019
G1 X72.884 Y64.492 E9.18178
G1 X73.267 Y64.491 E9.19772
G1 X73.305 Y64.492 E9.19931
G1 X73.693 Y64.491 E9.21546
G1 X73.731 Y64.492 E9.21704
G1 X74.116 Y64.491 E9.23307
G1 X74.154 Y64.492 E9.23466
G1 X74.537 Y64.491 E9.25061
G1 X74.575 Y64.492 E9.25219
G1 X74.963 Y64.491 E9.26834
G1 X75.001 Y64.492 E9.26993
G1 X75.386 Y64.491 E9.28596
G1 X75.424 Y64.492 E9.28754
G1 X75.807 Y64.491 E9.30349
G1 X75.845 Y64.492 E9.30507
G1 X76.233 Y64.491 E9.32123
G1 X76.271 Y64.492 E9.32281
G1 X76.656 Y64.491 E9.33884
G1 X76.694 Y64.492 E9.34042
G1 X77.077 Y64.491 E9.35637
G1 X77.115 Y64.492 E9.35795
G1 X77.503 Y64.491 E9.37411
G1 X77.541 Y64.492 E9.37569
G1 X77.926 Y64.491 E9.39172
G1 X77.964 Y64.492 E9.39330
G1 X78.347 Y64.491 E9.40925
G1 X78.385 Y64.492 E9.41083
G1 X78.773 Y64.491 E9.42699
G1 X78.811 Y64.492 E9.42857
G1 X79.196 Y64.491 E9.44460
G1 X79.234 Y64.492 E9.44619
G1 X79.619 Y64.491 E9.46222
G1 X79.659 Y64.492 E9.46388
G1 X80.429 Y64.491 E9.49594
G1 X80.466 Y64.492 E9.49748
G1 X80.849 Y64.491 E9.51343
G1 X80.887 Y64.492 E9.51502
G1 X81.284 Y64.491 E9.53155
G1 X82.502 Y64.532 E9.58229
G1 X83.131 Y64.684 E9.60923
G1 X83.812 Y64.950 E9.63968
G1 X84.488 Y64.684 E9.66992
G1 X85.116 Y64.535 E9.69680
G1 X86.246 Y64.492 E9.74388
G1 X86.775 Y64.491 E9.76591
G1 X86.813 Y64.492 E9.76749
G1 X87.199 Y64.491 E9.78356
G1 X87.237 Y64.492 E9.78515
G1 X87.621 Y64.491 E9.80114
G1 X87.659 Y64.492 E9.80272
G1 X88.046 Y64.491 E9.81883
G1 X88.084 Y64.492 E9.82042
G1 X88.469 Y64.491 E9.83645
G1 X88.507 Y64.492 E9.83803
G1 X88.887 Y64.491 E9.85385
G1 X89.622 Y64.508 E9.88446
G1 X90.258 Y64.613 E9.91130
G1 X91.389 Y64.965 E9.96062
G1 X92.267 Y65.740 E10.00939
G1 X93.035 Y66.614 E10.05783
G1 X93.383 Y67.732 E10.10659
G1 X93.491 Y68.367 E10.13341
G1 X93.511 Y69.127 E10.16506
G1 X93.467 Y70.346 E10.21585
G1 X93.316 Y70.972 E10.24266
G1 X93.050 Y71.653 E10.27311
G1 X93.316 Y72.329 E10.30335
G1 X93.465 Y72.957 E10.33023
G1 X93.510 Y74.146 E10.37977
G1 X93.468 Y75.421 E10.43289
G1 X93.316 Y76.052 E10.45991
G1 X93.051 Y76.732 E10.49030
G1 X93.316 Y77.408 E10.52053
G1 X93.465 Y78.036 E10.54741
G1 X93.510 Y79.224 E10.59691
G1 X93.468 Y80.500 E10.65007
G1 X93.316 Y81.131 E10.67709
G1 X93.050 Y81.812 E10.70754
G1 X93.316 Y82.488 E10.73778
G1 X93.465 Y83.116 E10.76466
G1 X93.508 Y84.246 E10.81174
G1 X93.509 Y84.775 E10.83377
G1 X93.508 Y84.813 E10.83535
G1 X93.509 Y85.199 E10.85143
G1 X93.508 Y85.237 E10.85301
G1 X93.509 Y85.621 E10.86900
G1 X93.508 Y85.659 E10.87058
G1 X93.509 Y86.046 E10.88669
G1 X93.508 Y86.084 E10.88828
G1 X93.509 Y86.469 E10.90431
G1 X93.508 Y86.493 E10.90531
G1 X93.509 Y86.887 E10.92171
G1 X93.492 Y87.622 E10.95233
G1 X93.387 Y88.258 E10.97917
G1 X93.035 Y89.389 E11.02849
G1 X92.260 Y90.267 E11.07725
G1 X91.386 Y91.035 E11.12569
G1 X90.268 Y91.383 E11.17445
G1 X89.613 Y91.494 E11.20211
G1 X88.481 Y91.510 E11.24925
G1 X88.416 Y91.508 E11.25196
G1 X88.040 Y91.509 E11.26761
G1 X88.002 Y91.508 E11.26920
G1 X87.617 Y91.509 E11.28523
G1 X87.579 Y91.508 E11.28681
G1 X87.195 Y91.509 E11.30280
G1 X87.157 Y91.508 E11.30438
G1 X86.770 Y91.509 E11.32049
G1 X86.732 Y91.508 E11.32208
G1 X86.335 Y91.509 E11.33861
G1 X85.117 Y91.468 E11.38935
G1 X84.488 Y91.316 E11.41630
G1 X83.807 Y91.050 E11.44674
G1 X83.131 Y91.316 E11.47699
G1 X82.503 Y91.465 E11.50386
G1 X81.372 Y91.508 E11.55099
G1 X80.842 Y91.509 E11.57305
G1 X80.804 Y91.508 E11.57464
G1 X80.420 Y91.509 E11.59063
G1 X80.382 Y91.508 E11.59221
G1 X80.019 Y91.509 E11.60732
G1 X79.929 Y91.508 E11.61107
G1 X79.535 Y91.509 E11.62748
G1 X79.497 Y91.508 E11.62906
G1 X79.112 Y91.509 E11.64509
G1 X79.074 Y91.508 E11.64667
G1 X78.691 Y91.509 E11.66262
G1 X78.653 Y91.508 E11.66420
G1 X78.265 Y91.509 E11.68036
G1 X78.227 Y91.508 E11.68194
G1 X77.842 Y91.509 E11.69797
G1 X77.804 Y91.508 E11.69955
G1 X77.421 Y91.509 E11.71550
G1 X77.383 Y91.508 E11.71709
G1 X76.995 Y91.509 E11.73324
G1 X76.957 Y91.508 E11.73482
G1 X76.572 Y91.509 E11.75085
G1 X76.534 Y91.508 E11.75244
G1 X76.151 Y91.509 E11.76838
G1 X76.113 Y91.508 E11.76997
G1 X75.725 Y91.509 E11.78612
G1 X75.687 Y91.508 E11.78771
G1 X75.302 Y91.509 E11.80374
G1 X75.264 Y91.508 E11.80532
G1 X74.881 Y91.509 E11.82127
G1 X74.843 Y91.508 E11.82285
G1 X74.455 Y91.509 E11.83900
G1 X74.417 Y91.508 E11.84059
G1 X74.032 Y91.509 E11.85662
G1 X73.994 Y91.508 E11.85820
G1 X73.611 Y91.509 E11.87415
G1 X73.573 Y91.508 E11.87573
G1 X73.185 Y91.509 E11.89189
G1 X73.147 Y91.508 E11.89347
G1 X72.764 Y91.509 E11.90942
G1 X72.726 Y91.508 E11.91100
G1 X72.338 Y91.509 E11.92716
G1 X72.300 Y91.508 E11.92874
G1 X71.915 Y91.509 E11.94477
G1 X71.877 Y91.508 E11.94635
G1 X71.492 Y91.509 E11.96238
G1 X71.454 Y91.508 E11.96396
G1 X71.072 Y91.509 E11.97987
G1 X70.374 Y91.491 E12.00894
G1 X69.742 Y91.387 E12.03561
G1 X68.611 Y91.035 E12.08493
G1 X67.733 Y90.260 E12.13370
G1 X66.965 Y89.386 E12.18214
G1 X66.617 Y88.268 E12.23090
G1 X66.509 Y87.633 E12.25772
G1 X66.490 Y86.886 E12.28883
G1 X66.492 Y86.808 E12.29208
G1 X66.491 Y86.424 E12.30807
G1 X66.492 Y86.386 E12.30965
G1 X66.491 Y86.001 E12.32568
G1 X66.492 Y85.963 E12.32726
G1 X66.491 Y85.580 E12.34321
G1 X66.492 Y85.542 E12.34479
G1 X66.491 Y85.154 E12.36095
G1 X66.492 Y85.116 E12.36253
G1 X66.491 Y84.733 E12.37848
G1 X66.492 Y84.695 E12.38006
G1 X66.491 Y84.294 E12.39676
G1 X66.533 Y83.114 E12.44592
G1 X66.684 Y82.488 E12.47274
G1 X66.950 Y81.807 E12.50318
G1 X66.684 Y81.131 E12.53343
G1 X66.535 Y80.503 E12.56030
G1 X66.492 Y79.372 E12.60743
G1 X66.491 Y78.804 E12.63108
G1 X66.492 Y78.764 E12.63274
G1 X66.491 Y78.381 E12.64869
G1 X66.492 Y78.343 E12.65027
G1 X66.491 Y77.958 E12.66630
G1 X66.492 Y77.920 E12.66789
G1 X66.491 Y77.535 E12.68392
G1 X66.492 Y77.497 E12.68550
G1 X66.491 Y77.112 E12.70153
G1 X66.492 Y77.074 E12.70311
G1 X66.491 Y76.691 E12.71906
G1 X66.492 Y76.642 E12.72110
G1 X66.491 Y76.265 E12.73680
G1 X66.492 Y76.218 E12.73876
G1 X66.491 Y75.842 E12.75441
G1 X66.492 Y75.795 E12.75637
G1 X66.491 Y75.421 E12.77194
G1 X66.492 Y75.372 E12.77398
G1 X66.491 Y74.995 E12.78968
G1 X66.492 Y74.948 E12.79164
G1 X66.491 Y74.572 E12.80729
G1 X66.492 Y74.525 E12.80925
G1 X66.491 Y74.151 E12.82482
G1 X66.492 Y74.102 E12.82686
G1 X66.491 Y73.725 E12.84256
G1 X66.492 Y73.678 E12.84452
G1 X66.491 Y73.302 E12.86018
G1 X66.492 Y73.255 E12.86213
G1 X66.491 Y72.881 E12.87771
G1 X66.492 Y72.832 E12.87975
G1 X66.491 Y72.455 E12.89544
G1 X66.492 Y72.408 E12.89740
G1 X66.491 Y72.032 E12.91306
G1 X66.492 Y71.985 E12.91501
G1 X66.491 Y71.611 E12.93059
G1 X66.492 Y71.562 E12.93263
G1 X66.491 Y71.185 E12.94833
G1 X66.492 Y71.138 E12.95028
G1 X66.491 Y70.764 E12.96586
G1 X66.492 Y70.717 E12.96781
G1 X66.491 Y70.338 E12.98359
G1 X66.492 Y70.294 E12.98543
G1 X66.491 Y69.915 E13.00121
G1 X66.492 Y69.877 E13.00279
G1 X66.491 Y69.492 E13.01882
G1 X66.492 Y69.453 E13.02045
G1 X66.491 Y69.072 E13.03631
G1 X66.509 Y68.374 E13.06538
G1 X66.613 Y67.742 E13.09205
G1 X66.965 Y66.611 E13.14137
G1 X67.740 Y65.733 E13.19013
G1 F600 E11.69013
G1 Z0.525
G0 F10500 X70.740 Y69.135
;TYPE:WALL-INNER
G1 Z0.425
G1 F600 E13.19013
G1 F900 X70.753 Y68.753 E13.20605
G1 X71.511 Y68.740 E13.23762
G1 X71.558 Y68.741 E13.23957
G1 X71.934 Y68.740 E13.25523
G1 X71.981 Y68.741 E13.25719
G1 X72.358 Y68.740 E13.27288
G1 X72.406 Y68.741 E13.27488
G1 X72.781 Y68.740 E13.29050
G1 X72.828 Y68.741 E13.29245
G1 X73.205 Y68.740 E13.30815
G1 X73.253 Y68.741 E13.31015
G1 X73.628 Y68.740 E13.32577
G1 X73.675 Y68.741 E13.32772
G1 X74.051 Y68.740 E13.34338
G1 X74.098 Y68.741 E13.34534
G1 X74.475 Y68.740 E13.36103
G1 X74.523 Y68.741 E13.36303
G1 X74.898 Y68.740 E13.37865
G1 X74.945 Y68.741 E13.38060
G1 X75.321 Y68.740 E13.39626
G1 X75.368 Y68.741 E13.39822
G1 X75.745 Y68.740 E13.41392
G1 X75.793 Y68.741 E13.41591
G1 X76.168 Y68.740 E13.43153
G1 X76.215 Y68.741 E13.43349
G1 X76.591 Y68.740 E13.44914
G1 X76.638 Y68.741 E13.45110
G1 X77.015 Y68.740 E13.46680
G1 X77.063 Y68.741 E13.46880
G1 X77.438 Y68.740 E13.48441
G1 X77.485 Y68.741 E13.48637
G1 X77.861 Y68.740 E13.50202
G1 X77.908 Y68.741 E13.50398
G1 X78.285 Y68.740 E13.51968
G1 X78.333 Y68.741 E13.52168
G1 X78.708 Y68.740 E13.53729
G1 X78.755 Y68.741 E13.53925
G1 X79.131 Y68.740 E13.55491
G1 X79.178 Y68.741 E13.55686
G1 X79.554 Y68.740 E13.57252
G1 X79.601 Y68.741 E13.57448
G1 X80.363 Y68.740 E13.60620
G1 X80.412 Y68.741 E13.60825
G1 X80.787 Y68.740 E13.62386
G1 X80.835 Y68.741 E13.62586
G1 X81.230 Y68.740 E13.64231
G1 X81.596 Y68.753 E13.65756
G1 X81.598 Y69.035 E13.66930
G1 X81.596 Y69.564 E13.69132
G1 X81.597 Y69.863 E13.70377
G1 X81.596 Y69.971 E13.70827
G1 X81.597 Y70.283 E13.72126
G1 X81.596 Y70.383 E13.72543
G1 X81.597 Y70.706 E13.73888
G1 X81.596 Y70.802 E13.74287
G1 X81.597 Y71.127 E13.75640
G1 X81.596 Y71.223 E13.76040
G1 X81.597 Y71.551 E13.77406
G1 X81.596 Y71.647 E13.77806
G1 X81.597 Y71.974 E13.79167
G1 X81.596 Y72.070 E13.79567
G1 X81.597 Y72.397 E13.80929
G1 X81.596 Y72.493 E13.81328
G1 X81.597 Y72.821 E13.82694
G1 X81.596 Y72.917 E13.83094
G1 X81.597 Y73.244 E13.84455
G1 X81.596 Y73.340 E13.84855
G1 X81.597 Y73.667 E13.86217
G1 X81.596 Y73.763 E13.86616
G1 X81.597 Y74.091 E13.87982
G1 X81.596 Y74.187 E13.88382
G1 X81.597 Y74.514 E13.89743
G1 X81.596 Y74.610 E13.90143
G1 X81.597 Y74.937 E13.91505
G1 X81.596 Y75.033 E13.91905
G1 X81.597 Y75.361 E13.93270
G1 X81.596 Y75.457 E13.93670
G1 X81.597 Y75.784 E13.95032
G1 X81.596 Y75.880 E13.95431
G1 X81.597 Y76.207 E13.96793
G1 X81.596 Y76.303 E13.97193
G1 X81.597 Y76.631 E13.98558
G1 X81.596 Y76.734 E13.98987
G1 X81.604 Y77.223 E14.01024
G1 X81.692 Y77.815 E14.03516
G1 X82.053 Y78.490 E14.06703
G1 X82.729 Y78.848 E14.09888
G1 X83.318 Y78.934 E14.12367
G1 X83.808 Y78.942 E14.14407
G1 X84.300 Y78.935 E14.16456
G1 X84.893 Y78.849 E14.18951
G1 X85.569 Y78.487 E14.22144
G1 X85.927 Y77.811 E14.25329
G1 X86.013 Y77.222 E14.27807
G1 X86.023 Y76.649 E14.30193
G1 X86.022 Y76.318 E14.31572
G1 X86.023 Y76.222 E14.31971
G1 X86.022 Y75.895 E14.33333
G1 X86.023 Y75.799 E14.33733
G1 X86.022 Y75.472 E14.35094
G1 X86.023 Y75.376 E14.35494
G1 X86.022 Y75.048 E14.36860
G1 X86.023 Y74.952 E14.37260
G1 X86.022 Y74.625 E14.38621
G1 X86.023 Y74.529 E14.39021
G1 X86.022 Y74.202 E14.40382
G1 X86.023 Y74.106 E14.40782
G1 X86.022 Y73.778 E14.42148
G1 X86.023 Y73.682 E14.42548
G1 X86.022 Y73.355 E14.43909
G1 X86.023 Y73.259 E14.44309
G1 X86.022 Y72.932 E14.45671
G1 X86.023 Y72.836 E14.46070
G1 X86.022 Y72.508 E14.47436
G1 X86.023 Y72.412 E14.47836
G1 X86.022 Y72.085 E14.49197
G1 X86.023 Y71.989 E14.49597
G1 X86.022 Y71.662 E14.50959
G1 X86.023 Y71.566 E14.51358
G1 X86.022 Y71.238 E14.52724
G1 X86.023 Y71.142 E14.53124
G1 X86.022 Y70.817 E14.54477
G1 X86.023 Y70.721 E14.54877
G1 X86.022 Y70.398 E14.56222
G1 X86.023 Y70.298 E14.56638
G1 X86.021 Y69.573 E14.59657
G1 X86.022 Y69.456 E14.60144
G1 X86.021 Y69.165 E14.61356
G1 X86.022 Y69.042 E14.61868
G1 X86.021 Y68.762 E14.63034
G1 X86.022 Y68.752 E14.63076
G1 X86.713 Y68.740 E14.65953
G1 X86.762 Y68.741 E14.66157
G1 X87.137 Y68.740 E14.67719
G1 X87.185 Y68.741 E14.67919
G1 X87.560 Y68.740 E14.69480
G1 X87.609 Y68.741 E14.69684
G1 X87.984 Y68.740 E14.71246
G1 X88.032 Y68.741 E14.71445
G1 X88.407 Y68.740 E14.73007
G1 X88.455 Y68.741 E14.73207
G1 X88.832 Y68.740 E14.74777
G1 X89.247 Y68.753 E14.76505
G1 X89.260 Y69.118 E14.78026
G1 X89.248 Y69.437 E14.79355
G1 X88.963 Y69.439 E14.80542
G1 X88.839 Y69.438 E14.81058
G1 X88.364 Y69.446 E14.83036
G1 X87.781 Y69.535 E14.85492
G1 X87.115 Y69.902 E14.88658
G1 X86.768 Y70.575 E14.91811
G1 X86.684 Y71.161 E14.94276
G1 X86.676 Y71.660 E14.96354
G1 X86.697 Y72.230 E14.98729
G1 X86.770 Y72.727 E15.00821
G1 X87.115 Y73.396 E15.03955
G1 X87.778 Y73.765 E15.07114
G1 X88.364 Y73.854 E15.09582
G1 X88.951 Y73.863 E15.12027
G1 X89.248 Y73.864 E15.13263
G1 X89.259 Y74.154 E15.14472
G1 X89.247 Y74.517 E15.15984
G1 X88.963 Y74.519 E15.17166
G1 X88.839 Y74.518 E15.17683
G1 X88.364 Y74.526 E15.19661
G1 X87.781 Y74.615 E15.22116
G1 X87.115 Y74.982 E15.25283
G1 X86.768 Y75.655 E15.28435
G1 X86.684 Y76.241 E15.30900
G1 X86.676 Y76.740 E15.32978
G1 X86.697 Y77.310 E15.35353
G1 X86.770 Y77.807 E15.37445
G1 X87.115 Y78.476 E15.40579
G1 X87.778 Y78.845 E15.43739
G1 X88.365 Y78.934 E15.46211
G1 X88.952 Y78.942 E15.48655
G1 X89.248 Y78.943 E15.49887
G1 X89.259 Y79.232 E15.51092
G1 X89.247 Y79.596 E15.52608
G1 X88.963 Y79.598 E15.53791
G1 X88.839 Y79.597 E15.54307
G1 X88.364 Y79.605 E15.56285
G1 X87.781 Y79.694 E15.58741
G1 X87.115 Y80.061 E15.61907
G1 X86.768 Y80.734 E15.65060
G1 X86.684 Y81.320 E15.67525
G1 X86.676 Y81.818 E15.69598
G1 X86.696 Y82.389 E15.71977
G1 X86.770 Y82.886 E15.74070
G1 X87.115 Y83.555 E15.77204
G1 X87.778 Y83.924 E15.80363
G1 X88.364 Y84.013 E15.82831
G1 X88.954 Y84.022 E15.85288
G1 X89.233 Y84.021 E15.86450
G1 X89.248 Y84.022 E15.86512
G1 X89.260 Y84.710 E15.89378
G1 X89.259 Y84.762 E15.89594
G1 X89.260 Y85.134 E15.91143
G1 X89.259 Y85.185 E15.91355
G1 X89.260 Y85.557 E15.92904
G1 X89.259 Y85.609 E15.93121
G1 X89.260 Y85.981 E15.94670
G1 X89.259 Y86.032 E15.94882
G1 X89.260 Y86.404 E15.96431
G1 X89.259 Y86.455 E15.96644
G1 X89.260 Y86.830 E15.98205
G1 X89.247 Y87.247 E15.99942
G1 X88.512 Y87.260 E16.03003
G1 X88.477 Y87.259 E16.03149
G1 X88.102 Y87.260 E16.04710
G1 X88.054 Y87.259 E16.04910
G1 X87.679 Y87.260 E16.06472
G1 X87.631 Y87.259 E16.06671
G1 X87.256 Y87.260 E16.08233
G1 X87.207 Y87.259 E16.08437
G1 X86.832 Y87.260 E16.09998
G1 X86.784 Y87.259 E16.10198
G1 X86.389 Y87.260 E16.11843
G1 X86.023 Y87.247 E16.13368
G1 X86.021 Y86.969 E16.14525
G1 X86.022 Y86.839 E16.15067
G1 X86.014 Y86.364 E16.17045
G1 X85.925 Y85.781 E16.19500
G1 X85.558 Y85.115 E16.22667
G1 X84.885 Y84.768 E16.25820
G1 X84.299 Y84.684 E16.28284
G1 X83.800 Y84.676 E16.30362
G1 X83.230 Y84.697 E16.32737
G1 X82.733 Y84.770 E16.34829
G1 X82.064 Y85.115 E16.37963
G1 X81.695 Y85.778 E16.41123
G1 X81.606 Y86.364 E16.43591
G1 X81.597 Y86.951 E16.46035
G1 X81.596 Y87.248 E16.47272
G1 X80.905 Y87.260 E16.50149
G1 X80.857 Y87.259 E16.50349
G1 X80.482 Y87.260 E16.51911
G1 X80.434 Y87.259 E16.52110
G1 X80.047 Y87.260 E16.53722
G1 X79.969 Y87.259 E16.54047
G1 X79.600 Y87.260 E16.55583
G1 X79.553 Y87.259 E16.55779
G1 X79.177 Y87.260 E16.57344
G1 X79.130 Y87.259 E16.57540
G1 X78.753 Y87.260 E16.59110
G1 X78.705 Y87.259 E16.59310
G1 X78.330 Y87.260 E16.60871
G1 X78.283 Y87.259 E16.61067
G1 X77.907 Y87.260 E16.62633
G1 X77.860 Y87.259 E16.62828
G1 X77.483 Y87.260 E16.64398
G1 X77.435 Y87.259 E16.64598
G1 X77.060 Y87.260 E16.66159
G1 X77.013 Y87.259 E16.66355
G1 X76.637 Y87.260 E16.67921
G1 X76.590 Y87.259 E16.68117
G1 X76.213 Y87.260 E16.69686
G1 X76.165 Y87.259 E16.69886
G1 X75.790 Y87.260 E16.71448
G1 X75.743 Y87.259 E16.71643
G1 X75.367 Y87.260 E16.73209
G1 X75.320 Y87.259 E16.73405
G1 X74.943 Y87.260 E16.74974
G1 X74.895 Y87.259 E16.75174
G1 X74.520 Y87.260 E16.76736
G1 X74.473 Y87.259 E16.76932
G1 X74.097 Y87.260 E16.78497
G1 X74.050 Y87.259 E16.78693
G1 X73.673 Y87.260 E16.80263
G1 X73.625 Y87.259 E16.80463
G1 X73.250 Y87.260 E16.82024
G1 X73.203 Y87.259 E16.82220
G1 X72.826 Y87.260 E16.83789
G1 X72.778 Y87.259 E16.83989
G1 X72.403 Y87.260 E16.85551
G1 X72.356 Y87.259 E16.85747
G1 X71.980 Y87.260 E16.87312
G1 X71.933 Y87.259 E16.87508
G1 X71.557 Y87.260 E16.89073
G1 X71.510 Y87.259 E16.89269
G1 X71.133 Y87.260 E16.90839
G1 X70.753 Y87.247 E16.92422
G1 X70.740 Y86.492 E16.95566
G1 X70.741 Y86.442 E16.95774
G1 X70.740 Y86.069 E16.97328
G1 X70.741 Y86.019 E16.97536
G1 X70.740 Y85.645 E16.99093
G1 X70.741 Y85.594 E16.99305
G1 X70.740 Y85.222 E17.00854
G1 X70.741 Y85.172 E17.01063
G1 X70.740 Y84.798 E17.02620
G1 X70.741 Y84.747 E17.02832
G1 X70.740 Y84.347 E17.04498
G1 X70.752 Y84.023 E17.05848
G1 X71.037 Y84.021 E17.07035
G1 X71.155 Y84.022 E17.07526
G1 X71.447 Y84.021 E17.08742
G1 X71.561 Y84.022 E17.09216
G1 X71.857 Y84.021 E17.10449
G1 X71.966 Y84.023 E17.10903
G1 X72.286 Y84.022 E17.12235
G1 X72.383 Y84.023 E17.12639
G1 X72.709 Y84.022 E17.13997
G1 X72.802 Y84.023 E17.14384
G1 X73.130 Y84.022 E17.15750
G1 X73.223 Y84.023 E17.16137
G1 X73.559 Y84.022 E17.17536
G1 X73.739 Y84.023 E17.18285
G1 X74.066 Y84.022 E17.19647
G1 X74.159 Y84.023 E17.20034
G1 X74.489 Y84.022 E17.21408
G1 X74.582 Y84.023 E17.21795
G1 X74.913 Y84.022 E17.23174
G1 X75.006 Y84.023 E17.23561
G1 X75.336 Y84.022 E17.24935
G1 X75.429 Y84.023 E17.25322
G1 X75.759 Y84.022 E17.26696
G1 X75.852 Y84.023 E17.27084
G1 X76.183 Y84.022 E17.28462
G1 X76.276 Y84.023 E17.28849
G1 X76.606 Y84.022 E17.30223
G1 X76.699 Y84.023 E17.30610
G1 X77.029 Y84.022 E17.31984
G1 X77.122 Y84.023 E17.32372
G1 X77.453 Y84.022 E17.33750
G1 X77.546 Y84.023 E17.34137
G1 X77.876 Y84.022 E17.35511
G1 X77.969 Y84.023 E17.35898
G1 X78.299 Y84.022 E17.37273
G1 X78.396 Y84.023 E17.37676
G1 X79.219 Y84.014 E17.41103
G1 X79.814 Y83.928 E17.43607
G1 X80.490 Y83.566 E17.46800
G1 X80.848 Y82.890 E17.49985
G1 X80.934 Y82.301 E17.52463
G1 X80.942 Y81.810 E17.54508
G1 X80.935 Y81.319 E17.56552
G1 X80.849 Y80.726 E17.59047
G1 X80.487 Y80.050 E17.62240
G1 X79.812 Y79.693 E17.65420
G1 X79.220 Y79.605 E17.67912
G1 X78.407 Y79.597 E17.71297
G1 X78.311 Y79.596 E17.71697
G1 X77.981 Y79.597 E17.73071
G1 X77.888 Y79.596 E17.73458
G1 X77.558 Y79.597 E17.74832
G1 X77.465 Y79.596 E17.75220
G1 X77.134 Y79.597 E17.76598
G1 X77.041 Y79.596 E17.76985
G1 X76.711 Y79.597 E17.78359
G1 X76.618 Y79.596 E17.78746
G1 X76.288 Y79.597 E17.80120
G1 X76.195 Y79.596 E17.80508
G1 X75.864 Y79.597 E17.81886
G1 X75.771 Y79.596 E17.82273
G1 X75.441 Y79.597 E17.83647
G1 X75.348 Y79.596 E17.84034
G1 X75.018 Y79.597 E17.85408
G1 X74.925 Y79.596 E17.85796
G1 X74.594 Y79.597 E17.87174
G1 X74.501 Y79.596 E17.87561
G1 X74.171 Y79.597 E17.88935
G1 X74.078 Y79.596 E17.89323
G1 X73.743 Y79.597 E17.90717
G1 X73.563 Y79.596 E17.91467
G1 X73.235 Y79.597 E17.92833
G1 X73.142 Y79.596 E17.93220
G1 X72.814 Y79.597 E17.94586
G1 X72.721 Y79.596 E17.94973
G1 X72.395 Y79.597 E17.96330
G1 X72.298 Y79.596 E17.96734
G1 X71.981 Y79.597 E17.98054
G1 X71.876 Y79.596 E17.98491
G1 X71.570 Y79.597 E17.99765
G1 X71.454 Y79.596 E18.00248
G1 X71.156 Y79.598 E18.01489
G1 X70.752 Y79.596 E18.03171
G1 X70.740 Y78.872 E18.06186
G1 X70.741 Y78.822 E18.06395
G1 X70.740 Y78.449 E18.07948
G1 X70.741 Y78.399 E18.08156
G1 X70.740 Y78.026 E18.09709
G1 X70.741 Y77.976 E18.09917
G1 X70.740 Y77.603 E18.11470
G1 X70.741 Y77.553 E18.11679
G1 X70.740 Y77.180 E18.13232
G1 X70.741 Y77.130 E18.13440
G1 X70.740 Y76.756 E18.14997
G1 X70.741 Y76.705 E18.15210
G1 X70.740 Y76.333 E18.16759
G1 X70.741 Y76.283 E18.16967
G1 X70.740 Y75.910 E18.18520
G1 X70.741 Y75.860 E18.18728
G1 X70.740 Y75.486 E18.20285
G1 X70.741 Y75.435 E18.20498
G1 X70.740 Y75.063 E18.22047
G1 X70.741 Y75.013 E18.22255
G1 X70.740 Y74.640 E18.23808
G1 X70.741 Y74.590 E18.24016
G1 X70.740 Y74.216 E18.25574
G1 X70.741 Y74.165 E18.25786
G1 X70.740 Y73.793 E18.27335
G1 X70.741 Y73.743 E18.27543
G1 X70.740 Y73.370 E18.29096
G1 X70.741 Y73.320 E18.29305
G1 X70.740 Y72.946 E18.30862
G1 X70.741 Y72.895 E18.31074
G1 X70.740 Y72.523 E18.32623
G1 X70.741 Y72.473 E18.32831
G1 X70.740 Y72.100 E18.34384
G1 X70.741 Y72.050 E18.34593
G1 X70.740 Y71.676 E18.36150
G1 X70.741 Y71.625 E18.36362
G1 X70.740 Y71.253 E18.37911
G1 X70.741 Y71.203 E18.38120
G1 X70.740 Y70.829 E18.39677
G1 X70.741 Y70.778 E18.39889
G1 X70.740 Y70.406 E18.41438
G1 X70.741 Y70.356 E18.41646
G1 X70.740 Y69.983 E18.43199
G1 X70.741 Y69.933 E18.43408
G1 X70.740 Y69.560 E18.44961
G1 X70.741 Y69.510 E18.45169
G1 X70.740 Y69.135 E18.46730
G0 F10500 X70.116 Y69.502
;TYPE:WALL-OUTER
G1 F900 X70.115 Y69.119 E18.48325
G1 X70.125 Y68.718 E18.49995
G1 X70.149 Y68.578 E18.50587
G1 X70.195 Y68.428 E18.51240
G1 X70.307 Y68.301 E18.51945
G1 X70.426 Y68.197 E18.52603
G1 X70.577 Y68.150 E18.53262
G1 X70.720 Y68.125 E18.53866
G1 X71.111 Y68.115 E18.55495
G1 X71.143 Y68.116 E18.55628
G1 X71.526 Y68.115 E18.57223
G1 X71.566 Y68.116 E18.57389
G1 X71.949 Y68.115 E18.58984
G1 X71.989 Y68.116 E18.59151
G1 X72.373 Y68.115 E18.60750
G1 X72.413 Y68.116 E18.60916
G1 X72.796 Y68.115 E18.62511
G1 X72.836 Y68.116 E18.62678
G1 X73.220 Y68.115 E18.64276
G1 X73.260 Y68.116 E18.64443
G1 X73.643 Y68.115 E18.66038
G1 X73.683 Y68.116 E18.66204
G1 X74.066 Y68.115 E18.67799
G1 X74.106 Y68.116 E18.67966
G1 X74.490 Y68.115 E18.69565
G1 X74.530 Y68.116 E18.69731
G1 X74.913 Y68.115 E18.71326
G1 X74.953 Y68.116 E18.71493
G1 X75.336 Y68.115 E18.73087
G1 X75.376 Y68.116 E18.73254
G1 X75.760 Y68.115 E18.74853
G1 X75.800 Y68.116 E18.75019
G1 X76.183 Y68.115 E18.76614
G1 X76.223 Y68.116 E18.76781
G1 X76.606 Y68.115 E18.78376
G1 X76.646 Y68.116 E18.78542
G1 X77.030 Y68.115 E18.80141
G1 X77.070 Y68.116 E18.80308
G1 X77.453 Y68.115 E18.81902
G1 X77.493 Y68.116 E18.82069
G1 X77.876 Y68.115 E18.83664
G1 X77.916 Y68.116 E18.83830
G1 X78.300 Y68.115 E18.85429
G1 X78.340 Y68.116 E18.85596
G1 X78.723 Y68.115 E18.87191
G1 X78.763 Y68.116 E18.87357
G1 X79.146 Y68.115 E18.88952
G1 X79.186 Y68.116 E18.89119
G1 X79.569 Y68.115 E18.90713
G1 X79.609 Y68.116 E18.90880
G1 X80.378 Y68.115 E18.94082
G1 X80.419 Y68.116 E18.94253
G1 X80.802 Y68.115 E18.95847
G1 X80.842 Y68.116 E18.96014
G1 X81.222 Y68.115 E18.97596
G1 X82.013 Y68.142 E19.00892
G1 X82.130 Y68.184 E19.01409
G1 X82.179 Y68.250 E19.01752
G1 X82.220 Y68.557 E19.03041
G1 X82.223 Y69.038 E19.05044
G1 X82.221 Y69.564 E19.07234
G1 X82.222 Y69.869 E19.08504
G1 X82.221 Y69.973 E19.08937
G1 X82.222 Y70.290 E19.10257
G1 X82.221 Y70.386 E19.10657
G1 X82.222 Y70.713 E19.12018
G1 X82.221 Y70.805 E19.12402
G1 X82.222 Y71.134 E19.13771
G1 X82.221 Y71.226 E19.14155
G1 X82.222 Y71.558 E19.15537
G1 X82.221 Y71.650 E19.15920
G1 X82.222 Y71.981 E19.17298
G1 X82.221 Y72.073 E19.17681
G1 X82.222 Y72.404 E19.19060
G1 X82.221 Y72.496 E19.19443
G1 X82.222 Y72.828 E19.20825
G1 X82.221 Y72.920 E19.21208
G1 X82.222 Y73.251 E19.22586
G1 X82.221 Y73.343 E19.22969
G1 X82.222 Y73.674 E19.24348
G1 X82.221 Y73.766 E19.24731
G1 X82.222 Y74.098 E19.26113
G1 X82.221 Y74.190 E19.26496
G1 X82.222 Y74.521 E19.27874
G1 X82.221 Y74.613 E19.28258
G1 X82.222 Y74.944 E19.29636
G1 X82.221 Y75.036 E19.30019
G1 X82.222 Y75.368 E19.31401
G1 X82.221 Y75.460 E19.31784
G1 X82.222 Y75.791 E19.33163
G1 X82.221 Y75.883 E19.33546
G1 X82.222 Y76.214 E19.34924
G1 X82.221 Y76.306 E19.35307
G1 X82.222 Y76.638 E19.36689
G1 X82.221 Y76.732 E19.37081
G1 X82.228 Y77.172 E19.38913
G1 X82.294 Y77.616 E19.40782
G1 X82.514 Y78.027 E19.42723
G1 X82.926 Y78.245 E19.44664
G1 X83.369 Y78.310 E19.46528
G1 X83.809 Y78.317 E19.48361
G1 X84.250 Y78.311 E19.50197
G1 X84.695 Y78.246 E19.52070
G1 X85.106 Y78.026 E19.54011
G1 X85.324 Y77.614 E19.55951
G1 X85.389 Y77.171 E19.57816
G1 X85.398 Y76.644 E19.60010
G1 X85.397 Y76.311 E19.61397
G1 X85.398 Y76.219 E19.61780
G1 X85.397 Y75.888 E19.63158
G1 X85.398 Y75.796 E19.63541
G1 X85.397 Y75.465 E19.64920
G1 X85.398 Y75.373 E19.65303
G1 X85.397 Y75.041 E19.66685
G1 X85.398 Y74.949 E19.67068
G1 X85.397 Y74.618 E19.68446
G1 X85.398 Y74.526 E19.68829
G1 X85.397 Y74.195 E19.70208
G1 X85.398 Y74.103 E19.70591
G1 X85.397 Y73.771 E19.71973
G1 X85.398 Y73.679 E19.72356
G1 X85.397 Y73.348 E19.73734
G1 X85.398 Y73.256 E19.74118
G1 X85.397 Y72.925 E19.75496
G1 X85.398 Y72.833 E19.75879
G1 X85.397 Y72.501 E19.77261
G1 X85.398 Y72.409 E19.77644
G1 X85.397 Y72.078 E19.79023
G1 X85.398 Y71.986 E19.79406
G1 X85.397 Y71.655 E19.80784
G1 X85.398 Y71.563 E19.81167
G1 X85.397 Y71.231 E19.82549
G1 X85.398 Y71.139 E19.82932
G1 X85.397 Y70.810 E19.84302
G1 X85.398 Y70.718 E19.84685
G1 X85.397 Y70.391 E19.86047
G1 X85.398 Y70.295 E19.86447
G1 X85.396 Y69.568 E19.89474
G1 X85.397 Y69.454 E19.89949
G1 X85.396 Y69.160 E19.91173
G1 X85.397 Y69.041 E19.91668
G1 X85.396 Y68.763 E19.92826
G1 X85.414 Y68.361 E19.94501
G1 X85.434 Y68.260 E19.94930
G1 X85.490 Y68.184 E19.95323
G1 X85.570 Y68.152 E19.95682
G1 X85.609 Y68.143 E19.95848
G1 X86.324 Y68.116 E19.98828
G1 X86.728 Y68.115 E20.00510
G1 X86.769 Y68.116 E20.00681
G1 X87.152 Y68.115 E20.02275
G1 X87.192 Y68.116 E20.02442
G1 X87.575 Y68.115 E20.04037
G1 X87.616 Y68.116 E20.04208
G1 X87.999 Y68.115 E20.05802
G1 X88.039 Y68.116 E20.05969
G1 X88.422 Y68.115 E20.07564
G1 X88.462 Y68.116 E20.07730
G1 X88.846 Y68.115 E20.09329
G1 X89.282 Y68.125 E20.11145
G1 X89.422 Y68.149 E20.11736
G1 X89.572 Y68.195 E20.12390
G1 X89.699 Y68.307 E20.13095
G1 X89.803 Y68.426 E20.13753
G1 X89.850 Y68.577 E20.14411
G1 X89.875 Y68.720 E20.15016
G1 X89.885 Y69.100 E20.16599
G1 X89.858 Y69.854 E20.19740
G1 X89.816 Y69.971 E20.20258
G1 X89.750 Y70.020 E20.20600
G1 X89.442 Y70.061 E20.21894
G1 X88.962 Y70.064 E20.23892
G1 X88.842 Y70.063 E20.24392
G1 X88.417 Y70.070 E20.26162
G1 X87.985 Y70.136 E20.27982
G1 X87.583 Y70.358 E20.29894
G1 X87.372 Y70.768 E20.31814
G1 X87.308 Y71.210 E20.33673
G1 X87.301 Y71.654 E20.35522
G1 X87.320 Y72.173 E20.37685
G1 X87.373 Y72.533 E20.39200
G1 X87.584 Y72.942 E20.41116
G1 X87.984 Y73.164 E20.43021
G1 X88.416 Y73.230 E20.44840
G1 X88.957 Y73.238 E20.47093
G1 X89.631 Y73.253 E20.49900
G1 X89.740 Y73.275 E20.50363
G1 X89.816 Y73.331 E20.50756
G1 X89.848 Y73.411 E20.51115
G1 X89.857 Y73.450 E20.51282
G1 X89.884 Y74.154 E20.54215
G1 X89.858 Y74.934 E20.57465
G1 X89.816 Y75.051 E20.57983
G1 X89.750 Y75.100 E20.58325
G1 X89.442 Y75.141 E20.59619
G1 X88.962 Y75.144 E20.61617
G1 X88.842 Y75.143 E20.62117
G1 X88.417 Y75.150 E20.63887
G1 X87.985 Y75.216 E20.65706
G1 X87.583 Y75.438 E20.67618
G1 X87.372 Y75.848 E20.69538
G1 X87.308 Y76.290 E20.71398
G1 X87.301 Y76.734 E20.73247
G1 X87.320 Y77.253 E20.75409
G1 X87.373 Y77.613 E20.76925
G1 X87.584 Y78.022 E20.78841
G1 X87.984 Y78.244 E20.80746
G1 X88.416 Y78.310 E20.82565
G1 X88.957 Y78.317 E20.84818
G1 X89.631 Y78.332 E20.87625
G1 X89.740 Y78.354 E20.88088
G1 X89.816 Y78.410 E20.88481
G1 X89.848 Y78.490 E20.88840
G1 X89.857 Y78.529 E20.89007
G1 X89.884 Y79.232 E20.91936
G1 X89.858 Y80.013 E20.95190
G1 X89.816 Y80.130 E20.95707
G1 X89.750 Y80.179 E20.96050
G1 X89.442 Y80.220 E20.97343
G1 X88.962 Y80.223 E20.99342
G1 X88.842 Y80.222 E20.99842
G1 X88.417 Y80.229 E21.01612
G1 X87.985 Y80.295 E21.03431
G1 X87.583 Y80.517 E21.05343
G1 X87.372 Y80.927 E21.07263
G1 X87.308 Y81.369 E21.09123
G1 X87.301 Y81.812 E21.10968
G1 X87.320 Y82.331 E21.13130
G1 X87.373 Y82.692 E21.14649
G1 X87.584 Y83.101 E21.16566
G1 X87.984 Y83.323 E21.18470
G1 X88.416 Y83.389 E21.20290
G1 X88.958 Y83.397 E21.22547
G1 X89.238 Y83.396 E21.23713
G1 X89.639 Y83.414 E21.25384
G1 X89.740 Y83.434 E21.25813
G1 X89.816 Y83.490 E21.26206
G1 X89.848 Y83.570 E21.26565
G1 X89.857 Y83.609 E21.26732
G1 X89.884 Y84.313 E21.29665
G1 X89.885 Y84.727 E21.31389
G1 X89.884 Y84.769 E21.31564
G1 X89.885 Y85.151 E21.33154
G1 X89.884 Y85.192 E21.33325
G1 X89.885 Y85.574 E21.34916
G1 X89.884 Y85.616 E21.35091
G1 X89.885 Y85.998 E21.36681
G1 X89.884 Y86.039 E21.36852
G1 X89.885 Y86.421 E21.38443
G1 X89.884 Y86.462 E21.38613
G1 X89.885 Y86.845 E21.40208
G1 X89.875 Y87.282 E21.42028
G1 X89.852 Y87.421 E21.42615
G1 X89.805 Y87.572 E21.43273
G1 X89.693 Y87.699 E21.43978
G1 X89.574 Y87.803 E21.44636
G1 X89.423 Y87.850 E21.45295
G1 X89.281 Y87.874 E21.45894
G1 X88.507 Y87.885 E21.49118
G1 X88.470 Y87.884 E21.49272
G1 X88.087 Y87.885 E21.50866
G1 X88.047 Y87.884 E21.51033
G1 X87.664 Y87.885 E21.52628
G1 X87.624 Y87.884 E21.52794
G1 X87.241 Y87.885 E21.54389
G1 X87.200 Y87.884 E21.54560
G1 X86.817 Y87.885 E21.56155
G1 X86.777 Y87.884 E21.56321
G1 X86.397 Y87.885 E21.57903
G1 X85.606 Y87.858 E21.61199
G1 X85.489 Y87.816 E21.61717
G1 X85.440 Y87.750 E21.62059
G1 X85.399 Y87.442 E21.63353
G1 X85.396 Y86.964 E21.65343
G1 X85.397 Y86.842 E21.65851
G1 X85.390 Y86.417 E21.67621
G1 X85.324 Y85.985 E21.69440
G1 X85.102 Y85.583 E21.71352
G1 X84.692 Y85.372 E21.73272
G1 X84.250 Y85.308 E21.75132
G1 X83.806 Y85.301 E21.76981
G1 X83.287 Y85.320 E21.79143
G1 X82.927 Y85.373 E21.80659
G1 X82.518 Y85.584 E21.82575
G1 X82.296 Y85.984 E21.84480
G1 X82.230 Y86.416 E21.86299
G1 X82.222 Y86.957 E21.88552
G1 X82.207 Y87.631 E21.91359
G1 X82.185 Y87.740 E21.91822
G1 X82.129 Y87.816 E21.92215
G1 X82.049 Y87.848 E21.92574
G1 X82.010 Y87.857 E21.92741
G1 X81.294 Y87.884 E21.95724
G1 X80.890 Y87.885 E21.97406
G1 X80.850 Y87.884 E21.97573
G1 X80.467 Y87.885 E21.99168
G1 X80.427 Y87.884 E21.99334
G1 X80.040 Y87.885 E22.00946
G1 X79.966 Y87.884 E22.01254
G1 X79.585 Y87.885 E22.02840
G1 X79.545 Y87.884 E22.03007
G1 X79.162 Y87.885 E22.04602
G1 X79.122 Y87.884 E22.04768
G1 X78.738 Y87.885 E22.06367
G1 X78.698 Y87.884 E22.06534
G1 X78.315 Y87.885 E22.08128
G1 X78.275 Y87.884 E22.08295
G1 X77.892 Y87.885 E22.09890
G1 X77.852 Y87.884 E22.10056
G1 X77.468 Y87.885 E22.11655
G1 X77.428 Y87.884 E22.11822
G1 X77.045 Y87.885 E22.13417
G1 X77.005 Y87.884 E22.13583
G1 X76.622 Y87.885 E22.15178
G1 X76.582 Y87.884 E22.15345
G1 X76.198 Y87.885 E22.16943
G1 X76.158 Y87.884 E22.17110
G1 X75.775 Y87.885 E22.18705
G1 X75.735 Y87.884 E22.18871
G1 X75.352 Y87.885 E22.20466
G1 X75.312 Y87.884 E22.20633
G1 X74.928 Y87.885 E22.22232
G1 X74.888 Y87.884 E22.22398
G1 X74.505 Y87.885 E22.23993
G1 X74.465 Y87.884 E22.24160
G1 X74.082 Y87.885 E22.25754
G1 X74.042 Y87.884 E22.25921
G1 X73.658 Y87.885 E22.27520
G1 X73.618 Y87.884 E22.27686
G1 X73.235 Y87.885 E22.29281
G1 X73.195 Y87.884 E22.29448
G1 X72.811 Y87.885 E22.31047
G1 X72.771 Y87.884 E22.31213
G1 X72.388 Y87.885 E22.32808
G1 X72.348 Y87.884 E22.32975
G1 X71.965 Y87.885 E22.34569
G1 X71.925 Y87.884 E22.34736
G1 X71.542 Y87.885 E22.36331
G1 X71.502 Y87.884 E22.36497
G1 X71.118 Y87.885 E22.38096
G1 X70.718 Y87.875 E22.39762
G1 X70.578 Y87.851 E22.40354
G1 X70.428 Y87.805 E22.41007
G1 X70.301 Y87.693 E22.41712
G1 X70.197 Y87.574 E22.42370
G1 X70.149 Y87.421 E22.43038
G1 X70.125 Y87.280 E22.43633
G1 X70.115 Y86.898 E22.45224
G1 X70.116 Y86.857 E22.45395
G1 X70.115 Y86.475 E22.46986
G1 X70.116 Y86.434 E22.47157
G1 X70.115 Y86.052 E22.48747
G1 X70.116 Y86.011 E22.48918
G1 X70.115 Y85.628 E22.50513
G1 X70.116 Y85.587 E22.50683
G1 X70.115 Y85.205 E22.52274
G1 X70.116 Y85.164 E22.52445
G1 X70.115 Y84.781 E22.54039
G1 X70.116 Y84.740 E22.54210
G1 X70.115 Y84.360 E22.55792
G1 X70.142 Y83.606 E22.58934
G1 X70.184 Y83.489 E22.59452
G1 X70.250 Y83.440 E22.59794
G1 X70.558 Y83.399 E22.61088
G1 X71.038 Y83.396 E22.63086
G1 X71.156 Y83.397 E22.63578
G1 X71.450 Y83.396 E22.64802
G1 X71.563 Y83.397 E22.65272
G1 X71.867 Y83.396 E22.66538
G1 X71.971 Y83.398 E22.66971
G1 X72.291 Y83.397 E22.68304
G1 X72.386 Y83.398 E22.68699
G1 X72.714 Y83.397 E22.70065
G1 X72.805 Y83.398 E22.70444
G1 X73.135 Y83.397 E22.71818
G1 X73.226 Y83.398 E22.72197
G1 X73.560 Y83.397 E22.73588
G1 X73.740 Y83.398 E22.74337
G1 X74.071 Y83.397 E22.75715
G1 X74.162 Y83.398 E22.76094
G1 X74.494 Y83.397 E22.77477
G1 X74.585 Y83.398 E22.77856
G1 X74.918 Y83.397 E22.79242
G1 X75.009 Y83.398 E22.79621
G1 X75.341 Y83.397 E22.81003
G1 X75.432 Y83.398 E22.81382
G1 X75.764 Y83.397 E22.82765
G1 X75.855 Y83.398 E22.83144
G1 X76.188 Y83.397 E22.84530
G1 X76.279 Y83.398 E22.84909
G1 X76.611 Y83.397 E22.86292
G1 X76.702 Y83.398 E22.86670
G1 X77.034 Y83.397 E22.88053
G1 X77.125 Y83.398 E22.88432
G1 X77.458 Y83.397 E22.89818
G1 X77.549 Y83.398 E22.90197
G1 X77.881 Y83.397 E22.91580
G1 X77.972 Y83.398 E22.91959
G1 X78.304 Y83.397 E22.93341
G1 X78.396 Y83.398 E22.93724
G1 X79.170 Y83.390 E22.96947
G1 X79.616 Y83.325 E22.98824
G1 X80.027 Y83.105 E23.00765
G1 X80.245 Y82.693 E23.02706
G1 X80.310 Y82.250 E23.04570
G1 X80.317 Y81.809 E23.06406
G1 X80.311 Y81.369 E23.08239
G1 X80.246 Y80.924 E23.10111
G1 X80.026 Y80.513 E23.12052
G1 X79.615 Y80.295 E23.13989
G1 X79.171 Y80.229 E23.15858
G1 X78.308 Y80.221 E23.19452
G1 X77.976 Y80.222 E23.20834
G1 X77.885 Y80.221 E23.21213
G1 X77.553 Y80.222 E23.22596
G1 X77.462 Y80.221 E23.22974
G1 X77.129 Y80.222 E23.24361
G1 X77.038 Y80.221 E23.24740
G1 X76.706 Y80.222 E23.26122
G1 X76.615 Y80.221 E23.26501
G1 X76.283 Y80.222 E23.27884
G1 X76.192 Y80.221 E23.28263
G1 X75.859 Y80.222 E23.29649
G1 X75.768 Y80.221 E23.30028
G1 X75.436 Y80.222 E23.31410
G1 X75.345 Y80.221 E23.31789
G1 X75.013 Y80.222 E23.33172
G1 X74.922 Y80.221 E23.33551
G1 X74.589 Y80.222 E23.34937
G1 X74.498 Y80.221 E23.35316
G1 X74.166 Y80.222 E23.36699
G1 X74.075 Y80.221 E23.37078
G1 X73.742 Y80.222 E23.38464
G1 X73.562 Y80.221 E23.39214
G1 X73.230 Y80.222 E23.40596
G1 X73.139 Y80.221 E23.40975
G1 X72.809 Y80.222 E23.42349
G1 X72.718 Y80.221 E23.42728
G1 X72.390 Y80.222 E23.44094
G1 X72.295 Y80.221 E23.44489
G1 X71.977 Y80.222 E23.45813
G1 X71.874 Y80.221 E23.46242
G1 X71.567 Y80.222 E23.47520
G1 X71.453 Y80.221 E23.47995
G1 X71.157 Y80.223 E23.49228
G1 X70.548 Y80.220 E23.51763
G1 X70.369 Y80.207 E23.52511
G1 X70.260 Y80.185 E23.52974
G1 X70.184 Y80.129 E23.53367
G1 X70.152 Y80.049 E23.53726
G1 X70.143 Y80.010 E23.53892
G1 X70.116 Y79.294 E23.56876
G1 X70.115 Y78.855 E23.58704
G1 X70.116 Y78.814 E23.58874
G1 X70.115 Y78.432 E23.60465
G1 X70.116 Y78.391 E23.60636
G1 X70.115 Y78.009 E23.62226
G1 X70.116 Y77.968 E23.62397
G1 X70.115 Y77.586 E23.63988
G1 X70.116 Y77.545 E23.64158
G1 X70.115 Y77.163 E23.65749
G1 X70.116 Y77.122 E23.65920
G1 X70.115 Y76.739 E23.67514
G1 X70.116 Y76.698 E23.67685
G1 X70.115 Y76.316 E23.69276
G1 X70.116 Y76.275 E23.69446
G1 X70.115 Y75.893 E23.71037
G1 X70.116 Y75.852 E23.71208
G1 X70.115 Y75.469 E23.72803
G1 X70.116 Y75.428 E23.72973
G1 X70.115 Y75.046 E23.74564
G1 X70.116 Y75.005 E23.74735
G1 X70.115 Y74.623 E23.76325
G1 X70.116 Y74.582 E23.76496
G1 X70.115 Y74.199 E23.78091
G1 X70.116 Y74.158 E23.78262
G1 X70.115 Y73.776 E23.79852
G1 X70.116 Y73.735 E23.80023
G1 X70.115 Y73.353 E23.81613
G1 X70.116 Y73.312 E23.81784
G1 X70.115 Y72.929 E23.83379
G1 X70.116 Y72.888 E23.83550
G1 X70.115 Y72.506 E23.85140
G1 X70.116 Y72.465 E23.85311
G1 X70.115 Y72.083 E23.86902
G1 X70.116 Y72.042 E23.87072
G1 X70.115 Y71.659 E23.88667
G1 X70.116 Y71.618 E23.88838
G1 X70.115 Y71.236 E23.90428
G1 X70.116 Y71.195 E23.90599
G1 X70.115 Y70.812 E23.92194
G1 X70.116 Y70.771 E23.92365
G1 X70.115 Y70.389 E23.93955
G1 X70.116 Y70.348 E23.94126
G1 X70.115 Y69.966 E23.95717
G1 X70.116 Y69.925 E23.95887
G1 X70.115 Y69.543 E23.97478
G1 X70.116 Y69.502 E23.97649
G0 F10500 X70.958 Y69.633
;TYPE:SKIN
G1 F900 X88.365 Y87.039 E25.00147
G0 F10500 X89.040 Y86.831
G1 F900 X71.174 Y68.965 E26.05351
G0 F10500 X72.052 Y68.959
G1 F900 X89.040 Y85.947 E27.05384
G0 F10500 X89.040 Y85.063
G1 F900 X88.183 Y84.207 E27.10428
G0 F10500 X86.494 Y82.517
G1 F900 X83.100 Y79.123 E27.30414
G0 F10500 X84.019 Y79.158
G1 F900 X86.460 Y81.599 E27.44787
G0 F10500 X86.537 Y80.793
G1 F900 X84.825 Y79.080 E27.54871
G0 F10500 X85.435 Y78.807
G1 F900 X86.807 Y80.179 E27.62950
G0 F10500 X85.046 Y84.605
G1 F900 X81.013 Y80.571 E27.86702
G0 F10500 X81.158 Y81.600
G1 F900 X84.016 Y84.458 E28.03531
G0 F10500 X83.159 Y84.485
G1 F900 X81.132 Y82.458 E28.15467
G0 F10500 X80.950 Y83.161
G1 F900 X82.455 Y84.666 E28.24329
G0 F10500 X81.887 Y84.982
G1 F900 X80.639 Y83.733 E28.31681
G0 F10500 X80.064 Y84.042
G1 F900 X81.571 Y85.549 E28.40555
G0 F10500 X81.400 Y86.262
G1 F900 X79.353 Y84.215 E28.52609
G0 F10500 X78.494 Y84.240
G1 F900 X81.286 Y87.032 E28.69049
G0 F10500 X80.409 Y87.039
G1 F900 X77.611 Y84.241 E28.85525
G0 F10500 X76.727 Y84.241
G1 F900 X79.525 Y87.039 E29.02001
G0 F10500 X78.642 Y87.039
G1 F900 X75.843 Y84.241 E29.18480
G0 F10500 X74.959 Y84.241
G1 F900 X77.757 Y87.039 E29.34956
G0 F10500 X76.873 Y87.039
G1 F900 X74.075 Y84.241 E29.51432
G0 F10500 X73.191 Y84.241
G1 F900 X75.990 Y87.039 E29.67911
G0 F10500 X75.106 Y87.039
G1 F900 X72.307 Y84.240 E29.84393
G0 F10500 X71.422 Y84.239
G1 F900 X74.222 Y87.039 E30.00881
G0 F10500 X73.338 Y87.039
G1 F900 X70.959 Y84.660 E30.14890
G0 F10500 X70.959 Y85.544
G1 F900 X72.455 Y87.039 E30.23696
G0 F10500 X71.571 Y87.039
G1 F900 X70.959 Y86.428 E30.27297
G0 F10500 X80.400 Y83.477
G0 X80.830 Y81.810
G0 X80.398 Y80.140
G0 X78.405 Y79.709
G0 X71.863 Y79.376
G1 F900 X70.958 Y78.472 E30.32623
G0 F10500 X70.958 Y77.588
G1 F900 X72.746 Y79.376 E30.43152
G0 F10500 X73.631 Y79.376
G1 F900 X70.959 Y76.705 E30.58883
G0 F10500 X70.959 Y75.821
G1 F900 X74.514 Y79.376 E30.79816
G0 F10500 X75.398 Y79.376
G1 F900 X70.959 Y74.937 E31.05955
G0 F10500 X70.959 Y74.053
G1 F900 X76.282 Y79.376 E31.37300
G0 F10500 X77.166 Y79.376
G1 F900 X70.959 Y73.169 E31.73850
G0 F10500 X70.958 Y72.285
G1 F900 X78.050 Y79.376 E32.15608
G0 F10500 X78.939 Y79.381
G1 F900 X70.958 Y71.401 E32.62601
G0 F10500 X70.958 Y70.516
G1 F900 X79.970 Y79.529 E33.15671
G0 F10500 X81.414 Y77.437
G1 F900 X72.936 Y68.959 E33.65594
G0 F10500 X73.820 Y68.959
G1 F900 X81.377 Y76.516 E34.10093
G0 F10500 X81.377 Y75.632
G1 F900 X74.705 Y68.960 E34.49381
G0 F10500 X75.588 Y68.959
G1 F900 X81.377 Y74.748 E34.83470
G0 F10500 X81.377 Y73.865
G1 F900 X76.471 Y68.959 E35.12359
G0 F10500 X77.355 Y68.959
G1 F900 X81.377 Y72.981 E35.36042
G0 F10500 X81.378 Y72.098
G1 F900 X78.239 Y68.959 E35.54526
G0 F10500 X79.123 Y68.959
G1 F900 X81.378 Y71.214 E35.67805
G0 F10500 X81.378 Y70.330
G1 F900 X80.007 Y68.959 E35.75878
G0 F10500 X80.891 Y68.959
G1 F900 X81.378 Y69.446 E35.78746
G0 F10500 X81.804 Y77.778
G0 X82.142 Y78.400
G0 X83.808 Y78.830
G0 X85.479 Y78.398
G0 X85.911 Y76.648
G0 X86.240 Y69.005
G1 F900 X87.252 Y69.575 E35.83025
G1 X87.520 Y68.959 E35.85728
G1 X88.545 Y69.100 E35.87389
G1 X89.037 Y69.150 E35.89448
G0 F10500 X86.659 Y70.308
G1 F900 X86.240 Y70.330 E35.91916
G1 X86.360 Y71.335 E35.93332
G1 X86.352 Y72.210 E35.94656
G1 X86.627 Y72.928 E35.97857
G0 F10500 X86.240 Y73.424
G1 F900 X87.393 Y74.577 E36.04646
G0 F10500 X86.884 Y74.952
G1 F900 X86.240 Y74.750 E36.08437
G1 X86.411 Y75.805 E36.10452
G1 X86.349 Y76.627 E36.11759
G1 X86.313 Y77.475 E36.13156
G1 X86.999 Y78.603 E36.17333
G1 X88.145 Y79.307 E36.21590
G1 X88.660 Y79.380 E36.23755
G0 F10500 X87.248 Y79.736
G1 F900 X85.878 Y78.366 E36.31823
G0 F10500 X87.206 Y75.071
G0 X88.051 Y74.352
G1 F900 X88.150 Y74.008 E36.34250
G1 X88.882 Y74.299 E36.37530
G0 F10500 X87.206 Y75.071
G0 X86.788 Y76.739
G0 X87.206 Y78.388
G0 X88.954 Y78.830
G0 X87.206 Y80.150
G0 X86.788 Y81.817
G0 X86.114 Y85.673
G1 F900 X87.481 Y87.039 E36.45577
G0 F10500 X86.596 Y87.039
G1 F900 X86.238 Y86.680 E36.47688
;LAYER:1
M106 S191
G0 F10500 X85.357 Y86.982 Z0.805
;TYPE:WALL-INNER
G1 F1140 X85.212 Y86.922 E36.48155
G1 X85.033 Y86.708 E36.48986
G1 X84.365 Y86.482 E36.51087
G1 X83.810 Y86.456 E36.52741
G1 X83.254 Y86.480 E36.54399
G1 X82.585 Y86.708 E36.56504
G1 X82.408 Y86.920 E36.57326
G1 X82.262 Y86.980 E36.57797
G1 X81.904 Y87.492 E36.59657
G1 X81.800 Y87.940 E36.61027
G1 X81.799 Y87.967 E36.61107
G1 X80.998 Y87.982 E36.63494
G1 X80.847 Y87.981 E36.63943
G1 X80.574 Y87.982 E36.64756
G1 X80.424 Y87.981 E36.65203
G1 X80.149 Y87.982 E36.66022
G1 X79.852 Y87.981 E36.66907
G1 X79.579 Y87.982 E36.67720
G1 X79.430 Y87.981 E36.68164
G1 X79.156 Y87.982 E36.68980
G1 X79.007 Y87.981 E36.69423
G1 X78.733 Y87.982 E36.70240
G1 X78.584 Y87.981 E36.70683
G1 X78.309 Y87.982 E36.71502
G1 X78.160 Y87.981 E36.71946
G1 X77.886 Y87.982 E36.72762
G1 X77.737 Y87.981 E36.73206
G1 X77.463 Y87.982 E36.74022
G1 X77.314 Y87.981 E36.74466
G1 X77.039 Y87.982 E36.75285
G1 X76.890 Y87.981 E36.75729
G1 X76.616 Y87.982 E36.76545
G1 X76.467 Y87.981 E36.76989
G1 X76.193 Y87.982 E36.77805
G1 X76.044 Y87.981 E36.78248
G1 X75.769 Y87.982 E36.79067
G1 X75.620 Y87.981 E36.79511
G1 X75.346 Y87.982 E36.80327
G1 X75.197 Y87.981 E36.80771
G1 X74.923 Y87.982 E36.81587
G1 X74.774 Y87.981 E36.82031
G1 X74.499 Y87.982 E36.82850
G1 X74.350 Y87.981 E36.83294
G1 X74.076 Y87.982 E36.84110
G1 X73.927 Y87.981 E36.84554
G1 X73.653 Y87.982 E36.85370
G1 X73.504 Y87.981 E36.85813
G1 X73.229 Y87.982 E36.86633
G1 X73.080 Y87.981 E36.87076
G1 X72.806 Y87.982 E36.87892
G1 X72.657 Y87.981 E36.88336
G1 X72.382 Y87.982 E36.89155
G1 X72.233 Y87.981 E36.89599
G1 X71.959 Y87.982 E36.90415
G1 X71.810 Y87.981 E36.90859
G1 X71.536 Y87.982 E36.91675
G1 X71.387 Y87.981 E36.92119
G1 X71.124 Y87.982 E36.92902
G1 X70.750 Y87.974 E36.94016
G1 X70.448 Y87.931 E36.94925
G1 X70.252 Y87.857 E36.95549
G1 X70.141 Y87.746 E36.96016
G1 X70.068 Y87.553 E36.96631
G1 X70.025 Y87.252 E36.97536
G1 X70.018 Y86.894 E36.98603
G1 X70.019 Y86.742 E36.99056
G1 X70.018 Y86.471 E36.99863
G1 X70.019 Y86.319 E37.00315
G1 X70.018 Y86.048 E37.01123
G1 X70.019 Y85.896 E37.01575
G1 X70.018 Y85.625 E37.02382
G1 X70.019 Y85.473 E37.02835
G1 X70.018 Y85.201 E37.03645
G1 X70.019 Y85.049 E37.04098
G1 X70.018 Y84.778 E37.04905
G1 X70.019 Y84.626 E37.05358
G1 X70.018 Y84.363 E37.06141
G1 X70.028 Y83.824 E37.07747
G1 X70.505 Y83.716 E37.09203
G1 X71.018 Y83.357 E37.11068
G1 X71.078 Y83.212 E37.11536
G1 X71.292 Y83.033 E37.12366
G1 X71.323 Y82.943 E37.12650
G1 X71.703 Y83.141 E37.13926
G1 X72.251 Y83.336 E37.15659
G1 X72.783 Y83.365 E37.17245
G1 X73.651 Y83.373 E37.19831
G1 X74.074 Y83.372 E37.21091
G1 X74.458 Y83.373 E37.22234
G1 X74.511 Y83.372 E37.22392
G1 X74.882 Y83.373 E37.23497
G1 X74.935 Y83.372 E37.23655
G1 X75.305 Y83.373 E37.24757
G1 X75.358 Y83.372 E37.24915
G1 X75.728 Y83.373 E37.26017
G1 X75.781 Y83.372 E37.26175
G1 X76.152 Y83.373 E37.27280
G1 X76.205 Y83.372 E37.27438
G1 X76.575 Y83.373 E37.28539
G1 X76.628 Y83.372 E37.28697
G1 X76.998 Y83.373 E37.29799
G1 X77.051 Y83.372 E37.29957
G1 X77.422 Y83.373 E37.31062
G1 X77.475 Y83.372 E37.31220
G1 X77.845 Y83.373 E37.32322
G1 X77.898 Y83.372 E37.32480
G1 X78.268 Y83.373 E37.33582
G1 X78.321 Y83.372 E37.33740
G1 X78.698 Y83.373 E37.34863
G1 X79.274 Y83.351 E37.36579
G1 X79.558 Y83.276 E37.37454
G1 X79.912 Y82.989 E37.38812
G1 X80.198 Y82.633 E37.40172
G1 X80.276 Y82.331 E37.41101
G1 X80.293 Y81.807 E37.42662
G1 X80.272 Y81.266 E37.44275
G1 X80.197 Y80.982 E37.45149
G1 X79.910 Y80.628 E37.46507
G1 X79.554 Y80.342 E37.47867
G1 X79.247 Y80.263 E37.48811
G1 X78.352 Y80.246 E37.51477
G1 X78.293 Y80.247 E37.51653
G1 X77.923 Y80.246 E37.52755
G1 X77.870 Y80.247 E37.52913
G1 X77.500 Y80.246 E37.54015
G1 X77.447 Y80.247 E37.54173
G1 X77.076 Y80.246 E37.55277
G1 X77.023 Y80.247 E37.55435
G1 X76.653 Y80.246 E37.56537
G1 X76.600 Y80.247 E37.56695
G1 X76.230 Y80.246 E37.57797
G1 X76.177 Y80.247 E37.57955
G1 X75.806 Y80.246 E37.59060
G1 X75.753 Y80.247 E37.59218
G1 X75.383 Y80.246 E37.60320
G1 X75.330 Y80.247 E37.60478
G1 X74.960 Y80.246 E37.61580
G1 X74.907 Y80.247 E37.61738
G1 X74.536 Y80.246 E37.62843
G1 X74.483 Y80.247 E37.63001
G1 X74.113 Y80.246 E37.64103
G1 X74.060 Y80.247 E37.64260
G1 X73.690 Y80.246 E37.65362
G1 X73.637 Y80.247 E37.65520
G1 X73.262 Y80.246 E37.66637
G1 X72.258 Y80.280 E37.69629
G1 X71.703 Y80.478 E37.71384
G1 X71.323 Y80.676 E37.72660
G1 X71.292 Y80.585 E37.72947
G1 X71.080 Y80.408 E37.73769
G1 X71.020 Y80.262 E37.74239
G1 X70.508 Y79.904 E37.76100
G1 X70.060 Y79.800 E37.77470
G1 X70.031 Y79.799 E37.77556
G1 X70.018 Y79.274 E37.79120
G1 X70.019 Y79.122 E37.79573
G1 X70.018 Y78.851 E37.80380
G1 X70.019 Y78.699 E37.80833
G1 X70.018 Y78.428 E37.81640
G1 X70.019 Y78.276 E37.82093
G1 X70.018 Y78.005 E37.82900
G1 X70.019 Y77.853 E37.83353
G1 X70.018 Y77.582 E37.84160
G1 X70.019 Y77.430 E37.84612
G1 X70.018 Y77.159 E37.85420
G1 X70.019 Y77.007 E37.85872
G1 X70.018 Y76.736 E37.86679
G1 X70.019 Y76.584 E37.87132
G1 X70.018 Y76.312 E37.87942
G1 X70.019 Y76.160 E37.88395
G1 X70.018 Y75.889 E37.89202
G1 X70.019 Y75.737 E37.89655
G1 X70.018 Y75.466 E37.90462
G1 X70.019 Y75.314 E37.90915
G1 X70.018 Y75.042 E37.91725
G1 X70.019 Y74.890 E37.92178
G1 X70.018 Y74.619 E37.92985
G1 X70.019 Y74.467 E37.93437
G1 X70.018 Y74.196 E37.94245
G1 X70.019 Y74.044 E37.94697
G1 X70.018 Y73.772 E37.95507
G1 X70.019 Y73.620 E37.95960
G1 X70.018 Y73.349 E37.96767
G1 X70.019 Y73.197 E37.97220
G1 X70.018 Y72.926 E37.98027
G1 X70.019 Y72.774 E37.98480
G1 X70.018 Y72.502 E37.99290
G1 X70.019 Y72.350 E37.99743
G1 X70.018 Y72.079 E38.00550
G1 X70.019 Y71.927 E38.01002
G1 X70.018 Y71.656 E38.01810
G1 X70.019 Y71.504 E38.02262
G1 X70.018 Y71.232 E38.03072
G1 X70.019 Y71.080 E38.03525
G1 X70.018 Y70.809 E38.04332
G1 X70.019 Y70.657 E38.04785
G1 X70.018 Y70.385 E38.05595
G1 X70.019 Y70.233 E38.06048
G1 X70.018 Y69.962 E38.06855
G1 X70.019 Y69.810 E38.07308
G1 X70.018 Y69.539 E38.08115
G1 X70.019 Y69.387 E38.08568
G1 X70.018 Y69.127 E38.09342
G1 X70.026 Y68.750 E38.10465
G1 X70.069 Y68.448 E38.11374
G1 X70.143 Y68.252 E38.11997
G1 X70.254 Y68.141 E38.12465
G1 X70.447 Y68.068 E38.13080
G1 X70.748 Y68.025 E38.13985
G1 X71.120 Y68.018 E38.15093
G1 X71.258 Y68.019 E38.15504
G1 X71.532 Y68.018 E38.16320
G1 X71.681 Y68.019 E38.16764
G1 X71.955 Y68.018 E38.17580
G1 X72.104 Y68.019 E38.18024
G1 X72.378 Y68.018 E38.18840
G1 X72.527 Y68.019 E38.19284
G1 X72.802 Y68.018 E38.20103
G1 X72.951 Y68.019 E38.20547
G1 X73.225 Y68.018 E38.21363
G1 X73.374 Y68.019 E38.21807
G1 X73.649 Y68.018 E38.22626
G1 X73.798 Y68.019 E38.23069
G1 X74.072 Y68.018 E38.23885
G1 X74.221 Y68.019 E38.24329
G1 X74.495 Y68.018 E38.25145
G1 X74.644 Y68.019 E38.25589
G1 X74.919 Y68.018 E38.26408
G1 X75.068 Y68.019 E38.26852
G1 X75.342 Y68.018 E38.27668
G1 X75.491 Y68.019 E38.28112
G1 X75.765 Y68.018 E38.28928
G1 X75.914 Y68.019 E38.29372
G1 X76.189 Y68.018 E38.30191
G1 X76.338 Y68.019 E38.30634
G1 X76.612 Y68.018 E38.31451
G1 X76.761 Y68.019 E38.31894
G1 X77.035 Y68.018 E38.32710
G1 X77.184 Y68.019 E38.33154
G1 X77.459 Y68.018 E38.33973
G1 X77.608 Y68.019 E38.34417
G1 X77.882 Y68.018 E38.35233
G1 X78.031 Y68.019 E38.35677
G1 X78.305 Y68.018 E38.36493
G1 X78.454 Y68.019 E38.36937
G1 X78.729 Y68.018 E38.37756
G1 X78.878 Y68.019 E38.38200
G1 X79.152 Y68.018 E38.39016
G1 X79.301 Y68.019 E38.39459
G1 X79.575 Y68.018 E38.40275
G1 X79.723 Y68.019 E38.40716
G1 X80.270 Y68.018 E38.42345
G1 X80.422 Y68.019 E38.42798
G1 X80.695 Y68.018 E38.43611
G1 X80.845 Y68.019 E38.44058
G1 X81.119 Y68.018 E38.44874
G1 X81.664 Y68.021 E38.46497
G1 X81.803 Y68.028 E38.46912
G1 X81.806 Y68.077 E38.47058
G1 X81.903 Y68.505 E38.48365
G1 X82.262 Y69.018 E38.50230
G1 X82.407 Y69.078 E38.50697
G1 X82.586 Y69.292 E38.51528
G1 X82.676 Y69.323 E38.51812
G1 X82.478 Y69.703 E38.53088
G1 X82.281 Y70.258 E38.54842
G1 X82.247 Y71.214 E38.57691
G1 X82.246 Y72.036 E38.60139
G1 X82.247 Y72.072 E38.60246
G1 X82.246 Y72.458 E38.61396
G1 X82.247 Y72.495 E38.61506
G1 X82.246 Y72.882 E38.62659
G1 X82.247 Y72.919 E38.62769
G1 X82.246 Y73.305 E38.63919
G1 X82.247 Y73.342 E38.64029
G1 X82.246 Y73.728 E38.65179
G1 X82.247 Y73.765 E38.65289
G1 X82.246 Y74.152 E38.66442
G1 X82.247 Y74.189 E38.66552
G1 X82.246 Y74.575 E38.67701
G1 X82.247 Y74.612 E38.67812
G1 X82.246 Y74.998 E38.68961
G1 X82.247 Y75.035 E38.69072
G1 X82.246 Y75.422 E38.70224
G1 X82.247 Y75.459 E38.70334
G1 X82.246 Y75.845 E38.71484
G1 X82.247 Y75.882 E38.71594
G1 X82.246 Y76.268 E38.72744
G1 X82.247 Y76.305 E38.72854
G1 X82.246 Y76.698 E38.74025
G1 X82.268 Y77.274 E38.75742
G1 X82.343 Y77.558 E38.76616
G1 X82.630 Y77.912 E38.77974
G1 X82.986 Y78.198 E38.79334
G1 X83.288 Y78.276 E38.80263
G1 X83.811 Y78.293 E38.81821
G1 X84.353 Y78.272 E38.83437
G1 X84.637 Y78.197 E38.84312
G1 X84.991 Y77.910 E38.85669
G1 X85.277 Y77.554 E38.87029
G1 X85.356 Y77.247 E38.87973
G1 X85.373 Y76.352 E38.90639
G1 X85.372 Y76.309 E38.90767
G1 X85.373 Y75.923 E38.91917
G1 X85.372 Y75.886 E38.92027
G1 X85.373 Y75.500 E38.93177
G1 X85.372 Y75.463 E38.93287
G1 X85.373 Y75.076 E38.94440
G1 X85.372 Y75.039 E38.94550
G1 X85.373 Y74.653 E38.95699
G1 X85.372 Y74.616 E38.95810
G1 X85.373 Y74.230 E38.96959
G1 X85.372 Y74.193 E38.97070
G1 X85.373 Y73.806 E38.98222
G1 X85.372 Y73.769 E38.98332
G1 X85.373 Y73.383 E38.99482
G1 X85.372 Y73.346 E38.99592
G1 X85.373 Y72.960 E39.00742
G1 X85.372 Y72.923 E39.00852
G1 X85.373 Y72.536 E39.02005
G1 X85.372 Y72.499 E39.02115
G1 X85.373 Y72.113 E39.03265
G1 X85.372 Y72.076 E39.03375
G1 X85.373 Y71.690 E39.04525
G1 X85.372 Y71.653 E39.04635
G1 X85.373 Y71.262 E39.05799
G1 X85.339 Y70.258 E39.08791
G1 X85.142 Y69.705 E39.10540
G1 X84.945 Y69.322 E39.11822
G1 X85.034 Y69.292 E39.12102
G1 X85.211 Y69.080 E39.12925
G1 X85.357 Y69.020 E39.13395
G1 X85.715 Y68.508 E39.15256
G1 X85.819 Y68.060 E39.16625
G1 X85.820 Y68.033 E39.16706
G1 X86.621 Y68.018 E39.19092
G1 X86.772 Y68.019 E39.19542
G1 X87.045 Y68.018 E39.20355
G1 X87.195 Y68.019 E39.20802
G1 X87.469 Y68.018 E39.21618
G1 X87.619 Y68.019 E39.22064
G1 X87.892 Y68.018 E39.22877
G1 X88.042 Y68.019 E39.23324
G1 X88.315 Y68.018 E39.24137
G1 X88.465 Y68.019 E39.24584
G1 X88.731 Y68.018 E39.25376
G1 X89.252 Y68.026 E39.26928
G1 X89.552 Y68.069 E39.27831
G1 X89.748 Y68.143 E39.28455
G1 X89.859 Y68.254 E39.28922
G1 X89.932 Y68.447 E39.29537
G1 X89.975 Y68.748 E39.30442
G1 X89.982 Y69.108 E39.31515
G1 X89.972 Y69.624 E39.33052
G1 X89.971 Y69.645 E39.33115
G1 X89.923 Y69.647 E39.33258
G1 X89.495 Y69.744 E39.34565
G1 X88.982 Y70.103 E39.36430
G1 X88.922 Y70.248 E39.36897
G1 X88.708 Y70.427 E39.37728
G1 X88.482 Y71.095 E39.39828
G1 X88.456 Y71.650 E39.41483
G1 X88.480 Y72.206 E39.43140
G1 X88.708 Y72.875 E39.45246
G1 X88.920 Y73.052 E39.46068
G1 X88.980 Y73.198 E39.46538
G1 X89.492 Y73.556 E39.48399
G1 X89.940 Y73.660 E39.49769
G1 X89.967 Y73.661 E39.49849
G1 X89.981 Y74.071 E39.51071
G1 X89.980 Y74.575 E39.52572
G1 X89.972 Y74.724 E39.53016
G1 X89.923 Y74.727 E39.53163
G1 X89.495 Y74.824 E39.54470
G1 X88.982 Y75.183 E39.56335
G1 X88.922 Y75.328 E39.56802
G1 X88.708 Y75.507 E39.57633
G1 X88.482 Y76.175 E39.59733
G1 X88.456 Y76.730 E39.61388
G1 X88.480 Y77.286 E39.63046
G1 X88.708 Y77.955 E39.65151
G1 X88.920 Y78.132 E39.65973
G1 X88.980 Y78.278 E39.66443
G1 X89.492 Y78.636 E39.68304
G1 X89.941 Y78.740 E39.69677
G1 X89.967 Y78.741 E39.69754
G1 X89.981 Y79.149 E39.70970
G1 X89.980 Y79.662 E39.72498
G1 X89.972 Y79.803 E39.72918
G1 X89.923 Y79.806 E39.73065
G1 X89.495 Y79.903 E39.74372
G1 X88.982 Y80.262 E39.76237
G1 X88.922 Y80.407 E39.76704
G1 X88.708 Y80.586 E39.77535
G1 X88.482 Y81.253 E39.79632
G1 X88.456 Y81.808 E39.81287
G1 X88.480 Y82.365 E39.82948
G1 X88.708 Y83.034 E39.85053
G1 X88.920 Y83.211 E39.85875
G1 X88.980 Y83.357 E39.86345
G1 X89.492 Y83.715 E39.88206
G1 X89.940 Y83.819 E39.89576
G1 X89.969 Y83.820 E39.89662
G1 X89.982 Y84.619 E39.92042
G1 X89.981 Y84.772 E39.92498
G1 X89.982 Y85.042 E39.93302
G1 X89.981 Y85.195 E39.93758
G1 X89.982 Y85.466 E39.94565
G1 X89.981 Y85.619 E39.95021
G1 X89.982 Y85.889 E39.95825
G1 X89.981 Y86.042 E39.96281
G1 X89.982 Y86.312 E39.97085
G1 X89.981 Y86.465 E39.97540
G1 X89.982 Y86.728 E39.98324
G1 X89.974 Y87.252 E39.99885
G1 X89.931 Y87.552 E40.00787
G1 X89.857 Y87.748 E40.01411
G1 X89.746 Y87.859 E40.01879
G1 X89.553 Y87.932 E40.02493
G1 X89.254 Y87.975 E40.03393
G1 X88.611 Y87.982 E40.05308
G1 X88.467 Y87.981 E40.05737
G1 X88.194 Y87.982 E40.06550
G1 X88.044 Y87.981 E40.06997
G1 X87.771 Y87.982 E40.07810
G1 X87.621 Y87.981 E40.08257
G1 X87.347 Y87.982 E40.09073
G1 X87.197 Y87.981 E40.09520
G1 X86.924 Y87.982 E40.10333
G1 X86.774 Y87.981 E40.10779
G1 X86.498 Y87.982 E40.11601
G1 X85.958 Y87.980 E40.13210
G1 X85.816 Y87.972 E40.13633
G1 X85.813 Y87.923 E40.13780
G1 X85.716 Y87.495 E40.15087
G1 X85.357 Y86.982 E40.16951
G0 F10500 X85.031 Y87.388
;TYPE:WALL-OUTER
G1 F1080 X84.907 Y87.336 E40.17352
G1 X84.740 Y87.137 E40.18126
G1 X84.272 Y86.978 E40.19598
G1 X83.809 Y86.957 E40.20978
G1 X83.347 Y86.977 E40.22355
G1 X82.879 Y87.136 E40.23828
G1 X82.712 Y87.336 E40.24604
G1 X82.588 Y87.387 E40.25003
G1 X82.369 Y87.699 E40.26138
G1 X82.298 Y88.007 E40.27080
G1 X82.283 Y88.363 E40.28141
G1 X82.273 Y88.393 E40.28235
G1 X82.231 Y88.421 E40.28385
G1 X82.029 Y88.460 E40.28998
G1 X81.406 Y88.481 E40.30855
G1 X80.996 Y88.482 E40.32076
G1 X80.846 Y88.481 E40.32523
G1 X80.573 Y88.482 E40.33336
G1 X80.423 Y88.481 E40.33782
G1 X80.149 Y88.482 E40.34598
G1 X79.852 Y88.481 E40.35483
G1 X79.578 Y88.482 E40.36299
G1 X79.429 Y88.481 E40.36743
G1 X79.155 Y88.482 E40.37559
G1 X79.006 Y88.481 E40.38003
G1 X78.732 Y88.482 E40.38819
G1 X78.583 Y88.481 E40.39263
G1 X78.308 Y88.482 E40.40082
G1 X78.159 Y88.481 E40.40525
G1 X77.885 Y88.482 E40.41341
G1 X77.736 Y88.481 E40.41785
G1 X77.462 Y88.482 E40.42601
G1 X77.313 Y88.481 E40.43045
G1 X77.038 Y88.482 E40.43864
G1 X76.889 Y88.481 E40.44308
G1 X76.615 Y88.482 E40.45124
G1 X76.466 Y88.481 E40.45568
G1 X76.192 Y88.482 E40.46384
G1 X76.043 Y88.481 E40.46828
G1 X75.768 Y88.482 E40.47647
G1 X75.619 Y88.481 E40.48090
G1 X75.345 Y88.482 E40.48907
G1 X75.196 Y88.481 E40.49350
G1 X74.922 Y88.482 E40.50166
G1 X74.773 Y88.481 E40.50610
G1 X74.498 Y88.482 E40.51429
G1 X74.349 Y88.481 E40.51873
G1 X74.075 Y88.482 E40.52689
G1 X73.926 Y88.481 E40.53133
G1 X73.652 Y88.482 E40.53949
G1 X73.503 Y88.481 E40.54393
G1 X73.228 Y88.482 E40.55212
G1 X73.079 Y88.481 E40.55656
G1 X72.805 Y88.482 E40.56472
G1 X72.656 Y88.481 E40.56915
G1 X72.381 Y88.482 E40.57734
G1 X72.232 Y88.481 E40.58178
G1 X71.958 Y88.482 E40.58994
G1 X71.809 Y88.481 E40.59438
G1 X71.535 Y88.482 E40.60254
G1 X71.386 Y88.481 E40.60698
G1 X71.115 Y88.482 E40.61505
G1 X70.711 Y88.473 E40.62709
G1 X70.325 Y88.419 E40.63869
G1 X69.973 Y88.285 E40.64991
G1 X69.714 Y88.027 E40.66080
G1 X69.580 Y87.676 E40.67199
G1 X69.526 Y87.291 E40.68357
G1 X69.518 Y86.891 E40.69548
G1 X69.519 Y86.741 E40.69995
G1 X69.518 Y86.468 E40.70808
G1 X69.519 Y86.318 E40.71255
G1 X69.518 Y86.045 E40.72068
G1 X69.519 Y85.895 E40.72515
G1 X69.518 Y85.622 E40.73328
G1 X69.519 Y85.472 E40.73775
G1 X69.518 Y85.198 E40.74591
G1 X69.519 Y85.048 E40.75038
G1 X69.518 Y84.775 E40.75851
G1 X69.519 Y84.625 E40.76297
G1 X69.518 Y84.354 E40.77105
G1 X69.528 Y83.822 E40.78689
G1 X69.539 Y83.590 E40.79381
G1 X69.578 Y83.388 E40.79994
G1 X69.604 Y83.348 E40.80136
G1 X69.640 Y83.335 E40.80250
G1 X70.008 Y83.316 E40.81347
G1 X70.299 Y83.250 E40.82236
G1 X70.612 Y83.031 E40.83374
G1 X70.664 Y82.907 E40.83774
G1 X70.863 Y82.740 E40.84548
G1 X71.022 Y82.272 E40.86020
G1 X71.043 Y81.809 E40.87401
G1 X71.023 Y81.347 E40.88778
G1 X70.864 Y80.879 E40.90250
G1 X70.664 Y80.712 E40.91026
G1 X70.613 Y80.588 E40.91425
G1 X70.301 Y80.369 E40.92561
G1 X69.993 Y80.298 E40.93502
G1 X69.637 Y80.283 E40.94563
G1 X69.607 Y80.273 E40.94657
G1 X69.579 Y80.231 E40.94808
G1 X69.540 Y80.029 E40.95420
G1 X69.518 Y79.271 E40.97679
G1 X69.519 Y79.121 E40.98126
G1 X69.518 Y78.848 E40.98939
G1 X69.519 Y78.698 E40.99386
G1 X69.518 Y78.425 E41.00199
G1 X69.519 Y78.275 E41.00645
G1 X69.518 Y78.002 E41.01459
G1 X69.519 Y77.852 E41.01905
G1 X69.518 Y77.579 E41.02718
G1 X69.519 Y77.429 E41.03165
G1 X69.518 Y77.156 E41.03978
G1 X69.519 Y77.006 E41.04425
G1 X69.518 Y76.733 E41.05238
G1 X69.519 Y76.583 E41.05685
G1 X69.518 Y76.309 E41.06501
G1 X69.519 Y76.159 E41.06948
G1 X69.518 Y75.886 E41.07761
G1 X69.519 Y75.736 E41.08208
G1 X69.518 Y75.463 E41.09021
G1 X69.519 Y75.313 E41.09467
G1 X69.518 Y75.039 E41.10284
G1 X69.519 Y74.889 E41.10730
G1 X69.518 Y74.616 E41.11543
G1 X69.519 Y74.466 E41.11990
G1 X69.518 Y74.193 E41.12803
G1 X69.519 Y74.043 E41.13250
G1 X69.518 Y73.769 E41.14066
G1 X69.519 Y73.619 E41.14513
G1 X69.518 Y73.346 E41.15326
G1 X69.519 Y73.196 E41.15773
G1 X69.518 Y72.923 E41.16586
G1 X69.519 Y72.773 E41.17033
G1 X69.518 Y72.499 E41.17849
G1 X69.519 Y72.349 E41.18295
G1 X69.518 Y72.076 E41.19108
G1 X69.519 Y71.926 E41.19555
G1 X69.518 Y71.653 E41.20368
G1 X69.519 Y71.503 E41.20815
G1 X69.518 Y71.229 E41.21631
G1 X69.519 Y71.079 E41.22078
G1 X69.518 Y70.806 E41.22891
G1 X69.519 Y70.656 E41.23338
G1 X69.518 Y70.382 E41.24154
G1 X69.519 Y70.232 E41.24601
G1 X69.518 Y69.959 E41.25414
G1 X69.519 Y69.809 E41.25860
G1 X69.518 Y69.536 E41.26674
G1 X69.519 Y69.386 E41.27120
G1 X69.518 Y69.116 E41.27924
G1 X69.527 Y68.711 E41.29131
G1 X69.581 Y68.325 E41.30292
G1 X69.715 Y67.973 E41.31414
G1 X69.973 Y67.714 E41.32502
G1 X70.324 Y67.580 E41.33621
G1 X70.709 Y67.526 E41.34779
G1 X71.114 Y67.518 E41.35986
G1 X71.259 Y67.519 E41.36418
G1 X71.533 Y67.518 E41.37234
G1 X71.682 Y67.519 E41.37677
G1 X71.956 Y67.518 E41.38493
G1 X72.105 Y67.519 E41.38937
G1 X72.379 Y67.518 E41.39753
G1 X72.528 Y67.519 E41.40197
G1 X72.803 Y67.518 E41.41016
G1 X72.952 Y67.519 E41.41460
G1 X73.226 Y67.518 E41.42276
G1 X73.375 Y67.519 E41.42720
G1 X73.650 Y67.518 E41.43539
G1 X73.799 Y67.519 E41.43983
G1 X74.073 Y67.518 E41.44799
G1 X74.222 Y67.519 E41.45242
G1 X74.496 Y67.518 E41.46059
G1 X74.645 Y67.519 E41.46502
G1 X74.920 Y67.518 E41.47321
G1 X75.069 Y67.519 E41.47765
G1 X75.343 Y67.518 E41.48581
G1 X75.492 Y67.519 E41.49025
G1 X75.766 Y67.518 E41.49841
G1 X75.915 Y67.519 E41.50285
G1 X76.190 Y67.518 E41.51104
G1 X76.339 Y67.519 E41.51548
G1 X76.613 Y67.518 E41.52364
G1 X76.762 Y67.519 E41.52808
G1 X77.036 Y67.518 E41.53624
G1 X77.185 Y67.519 E41.54067
G1 X77.460 Y67.518 E41.54886
G1 X77.609 Y67.519 E41.55330
G1 X77.883 Y67.518 E41.56146
G1 X78.032 Y67.519 E41.56590
G1 X78.306 Y67.518 E41.57406
G1 X78.455 Y67.519 E41.57850
G1 X78.730 Y67.518 E41.58669
G1 X78.879 Y67.519 E41.59113
G1 X79.153 Y67.518 E41.59929
G1 X79.302 Y67.519 E41.60373
G1 X79.576 Y67.518 E41.61189
G1 X79.724 Y67.519 E41.61629
G1 X80.272 Y67.518 E41.63262
G1 X80.423 Y67.519 E41.63711
G1 X80.696 Y67.518 E41.64524
G1 X80.846 Y67.519 E41.64971
G1 X81.120 Y67.518 E41.65787
G1 X81.672 Y67.521 E41.67431
G1 X82.029 Y67.539 E41.68496
G1 X82.231 Y67.578 E41.69109
G1 X82.271 Y67.604 E41.69251
G1 X82.284 Y67.640 E41.69365
G1 X82.303 Y68.008 E41.70462
G1 X82.369 Y68.299 E41.71351
G1 X82.588 Y68.612 E41.72489
G1 X82.712 Y68.664 E41.72889
G1 X82.879 Y68.863 E41.73663
G1 X83.347 Y69.022 E41.75135
G1 X83.809 Y69.043 E41.76512
G1 X84.272 Y69.023 E41.77893
G1 X84.740 Y68.864 E41.79365
G1 X84.907 Y68.664 E41.80141
G1 X85.031 Y68.613 E41.80540
G1 X85.250 Y68.301 E41.81676
G1 X85.321 Y67.993 E41.82617
G1 X85.336 Y67.637 E41.83678
G1 X85.346 Y67.607 E41.83772
G1 X85.388 Y67.579 E41.83923
G1 X85.590 Y67.540 E41.84535
G1 X86.212 Y67.519 E41.86389
G1 X86.623 Y67.518 E41.87613
G1 X86.773 Y67.519 E41.88060
G1 X87.046 Y67.518 E41.88873
G1 X87.196 Y67.519 E41.89320
G1 X87.470 Y67.518 E41.90136
G1 X87.620 Y67.519 E41.90583
G1 X87.893 Y67.518 E41.91396
G1 X88.043 Y67.519 E41.91842
G1 X88.316 Y67.518 E41.92655
G1 X88.466 Y67.519 E41.93102
G1 X88.737 Y67.518 E41.93909
G1 X89.290 Y67.527 E41.95557
G1 X89.675 Y67.581 E41.96714
G1 X90.027 Y67.715 E41.97836
G1 X90.286 Y67.973 E41.98925
G1 X90.420 Y68.324 E42.00044
G1 X90.474 Y68.709 E42.01202
G1 X90.482 Y69.106 E42.02385
G1 X90.472 Y69.638 E42.03969
G1 X90.461 Y69.870 E42.04661
G1 X90.422 Y70.072 E42.05274
G1 X90.396 Y70.112 E42.05416
G1 X90.360 Y70.125 E42.05530
G1 X89.992 Y70.144 E42.06627
G1 X89.701 Y70.210 E42.07516
G1 X89.388 Y70.429 E42.08654
G1 X89.336 Y70.553 E42.09054
G1 X89.137 Y70.720 E42.09828
G1 X88.978 Y71.188 E42.11300
G1 X88.957 Y71.651 E42.12681
G1 X88.977 Y72.113 E42.14058
G1 X89.136 Y72.581 E42.15530
G1 X89.336 Y72.748 E42.16306
G1 X89.387 Y72.872 E42.16705
G1 X89.699 Y73.091 E42.17841
G1 X90.007 Y73.162 E42.18782
G1 X90.363 Y73.177 E42.19843
G1 X90.393 Y73.187 E42.19937
G1 X90.421 Y73.229 E42.20088
G1 X90.460 Y73.431 E42.20700
G1 X90.481 Y74.045 E42.22530
G1 X90.480 Y74.592 E42.24159
G1 X90.461 Y74.950 E42.25227
G1 X90.422 Y75.152 E42.25840
G1 X90.396 Y75.192 E42.25982
G1 X90.360 Y75.205 E42.26096
G1 X89.992 Y75.224 E42.27193
G1 X89.701 Y75.290 E42.28082
G1 X89.388 Y75.509 E42.29220
G1 X89.336 Y75.633 E42.29620
G1 X89.137 Y75.800 E42.30394
G1 X88.978 Y76.268 E42.31866
G1 X88.957 Y76.731 E42.33247
G1 X88.977 Y77.193 E42.34624
G1 X89.136 Y77.661 E42.36096
G1 X89.336 Y77.828 E42.36872
G1 X89.387 Y77.952 E42.37271
G1 X89.699 Y78.171 E42.38407
G1 X90.008 Y78.242 E42.39351
G1 X90.364 Y78.256 E42.40412
G1 X90.393 Y78.266 E42.40503
G1 X90.421 Y78.308 E42.40654
G1 X90.460 Y78.510 E42.41266
G1 X90.481 Y79.123 E42.43093
G1 X90.480 Y79.671 E42.44725
G1 X90.461 Y80.029 E42.45793
G1 X90.422 Y80.231 E42.46406
G1 X90.396 Y80.271 E42.46548
G1 X90.360 Y80.284 E42.46662
G1 X89.992 Y80.303 E42.47759
G1 X89.701 Y80.369 E42.48648
G1 X89.388 Y80.588 E42.49786
G1 X89.336 Y80.712 E42.50186
G1 X89.137 Y80.879 E42.50960
G1 X88.978 Y81.347 E42.52432
G1 X88.957 Y81.809 E42.53810
G1 X88.977 Y82.272 E42.55190
G1 X89.136 Y82.740 E42.56662
G1 X89.336 Y82.907 E42.57438
G1 X89.387 Y83.031 E42.57837
G1 X89.699 Y83.250 E42.58973
G1 X90.007 Y83.321 E42.59914
G1 X90.363 Y83.336 E42.60975
G1 X90.393 Y83.346 E42.61069
G1 X90.421 Y83.388 E42.61220
G1 X90.460 Y83.590 E42.61833
G1 X90.482 Y84.622 E42.64907
G1 X90.481 Y84.773 E42.65357
G1 X90.482 Y85.045 E42.66167
G1 X90.481 Y85.196 E42.66616
G1 X90.482 Y85.469 E42.67430
G1 X90.481 Y85.620 E42.67879
G1 X90.482 Y85.892 E42.68689
G1 X90.481 Y86.043 E42.69139
G1 X90.482 Y86.315 E42.69949
G1 X90.481 Y86.466 E42.70399
G1 X90.482 Y86.736 E42.71203
G1 X90.473 Y87.290 E42.72853
G1 X90.419 Y87.675 E42.74011
G1 X90.285 Y88.027 E42.75133
G1 X90.027 Y88.286 E42.76222
G1 X89.676 Y88.420 E42.77341
G1 X89.292 Y88.474 E42.78496
G1 X88.614 Y88.482 E42.80515
G1 X88.466 Y88.481 E42.80956
G1 X88.193 Y88.482 E42.81769
G1 X88.043 Y88.481 E42.82216
G1 X87.770 Y88.482 E42.83029
G1 X87.620 Y88.481 E42.83476
G1 X87.346 Y88.482 E42.84292
G1 X87.196 Y88.481 E42.84739
G1 X86.923 Y88.482 E42.85552
G1 X86.773 Y88.481 E42.85998
G1 X86.498 Y88.482 E42.86817
G1 X85.948 Y88.480 E42.88456
G1 X85.590 Y88.461 E42.89523
G1 X85.388 Y88.422 E42.90136
G1 X85.348 Y88.396 E42.90278
G1 X85.335 Y88.360 E42.90392
G1 X85.316 Y87.992 E42.91490
G1 X85.250 Y87.701 E42.92378
G1 X85.031 Y87.388 E42.93516
G0 F10500 X85.166 Y87.066
G0 X79.828 Y82.853
G0 X79.556 Y82.634
G1 F1080 X79.741 Y82.404 E42.94395
G1 X79.778 Y82.260 E42.94838
G1 X79.793 Y81.808 E42.96185
G1 X79.775 Y81.341 E42.97577
G1 X79.741 Y81.213 E42.97971
G1 X79.555 Y80.984 E42.98850
G1 X79.325 Y80.799 E42.99729
G1 X79.179 Y80.762 E43.00178
G1 X78.353 Y80.746 E43.02638
G1 X78.303 Y80.747 E43.02787
G1 X77.928 Y80.746 E43.03904
G1 X77.880 Y80.747 E43.04047
G1 X77.505 Y80.746 E43.05164
G1 X77.457 Y80.747 E43.05307
G1 X77.081 Y80.746 E43.06427
G1 X77.033 Y80.747 E43.06570
G1 X76.658 Y80.746 E43.07687
G1 X76.610 Y80.747 E43.07830
G1 X76.235 Y80.746 E43.08947
G1 X76.187 Y80.747 E43.09090
G1 X75.811 Y80.746 E43.10209
G1 X75.763 Y80.747 E43.10352
G1 X75.388 Y80.746 E43.11469
G1 X75.340 Y80.747 E43.11612
G1 X74.965 Y80.746 E43.12729
G1 X74.917 Y80.747 E43.12872
G1 X74.541 Y80.746 E43.13992
G1 X74.493 Y80.747 E43.14135
G1 X74.118 Y80.746 E43.15252
G1 X74.070 Y80.747 E43.15395
G1 X73.695 Y80.746 E43.16512
G1 X73.647 Y80.747 E43.16655
G1 X73.270 Y80.746 E43.17778
G1 X72.353 Y80.777 E43.20510
G1 X71.903 Y80.937 E43.21933
G1 X71.350 Y81.226 E43.23791
G1 X71.215 Y81.809 E43.25573
G1 X71.350 Y82.393 E43.27359
G1 X71.903 Y82.682 E43.29217
G1 X72.350 Y82.841 E43.30630
G1 X73.226 Y82.872 E43.33241
G1 X73.651 Y82.873 E43.34506
G1 X74.074 Y82.872 E43.35766
G1 X74.453 Y82.873 E43.36895
G1 X74.501 Y82.872 E43.37038
G1 X74.877 Y82.873 E43.38158
G1 X74.925 Y82.872 E43.38301
G1 X75.300 Y82.873 E43.39418
G1 X75.348 Y82.872 E43.39561
G1 X75.723 Y82.873 E43.40678
G1 X75.771 Y82.872 E43.40821
G1 X76.147 Y82.873 E43.41941
G1 X76.195 Y82.872 E43.42084
G1 X76.570 Y82.873 E43.43200
G1 X76.618 Y82.872 E43.43343
G1 X76.993 Y82.873 E43.44460
G1 X77.041 Y82.872 E43.44603
G1 X77.417 Y82.873 E43.45723
G1 X77.465 Y82.872 E43.45866
G1 X77.840 Y82.873 E43.46983
G1 X77.888 Y82.872 E43.47126
G1 X78.263 Y82.873 E43.48243
G1 X78.311 Y82.872 E43.48386
G1 X78.689 Y82.873 E43.49512
G1 X79.199 Y82.854 E43.51032
G1 X79.327 Y82.820 E43.51426
G1 X79.556 Y82.634 E43.52305
G0 F10500 X79.828 Y82.853
G0 X82.766 Y77.828
G0 X82.985 Y77.556
G1 F1080 X83.215 Y77.741 E43.53184
G1 X83.359 Y77.778 E43.53627
G1 X83.810 Y77.793 E43.54971
G1 X84.278 Y77.775 E43.56366
G1 X84.406 Y77.741 E43.56760
G1 X84.635 Y77.555 E43.57639
G1 X84.820 Y77.325 E43.58518
G1 X84.857 Y77.179 E43.58966
G1 X84.873 Y76.353 E43.61427
G1 X84.872 Y76.308 E43.61561
G1 X84.873 Y75.928 E43.62693
G1 X84.872 Y75.885 E43.62821
G1 X84.873 Y75.505 E43.63953
G1 X84.872 Y75.462 E43.64081
G1 X84.873 Y75.081 E43.65216
G1 X84.872 Y75.038 E43.65344
G1 X84.873 Y74.658 E43.66475
G1 X84.872 Y74.615 E43.66604
G1 X84.873 Y74.235 E43.67735
G1 X84.872 Y74.192 E43.67863
G1 X84.873 Y73.811 E43.68998
G1 X84.872 Y73.768 E43.69126
G1 X84.873 Y73.388 E43.70258
G1 X84.872 Y73.345 E43.70386
G1 X84.873 Y72.965 E43.71518
G1 X84.872 Y72.922 E43.71646
G1 X84.873 Y72.541 E43.72781
G1 X84.872 Y72.498 E43.72909
G1 X84.873 Y72.118 E43.74041
G1 X84.872 Y72.075 E43.74169
G1 X84.873 Y71.695 E43.75301
G1 X84.872 Y71.652 E43.75429
G1 X84.873 Y71.270 E43.76566
G1 X84.842 Y70.353 E43.79299
G1 X84.682 Y69.904 E43.80719
G1 X84.385 Y69.348 E43.82596
G1 X83.809 Y69.215 E43.84357
G1 X83.226 Y69.350 E43.86139
G1 X82.937 Y69.903 E43.87997
G1 X82.778 Y70.353 E43.89419
G1 X82.747 Y71.223 E43.92012
G1 X82.746 Y72.031 E43.94418
G1 X82.747 Y72.073 E43.94543
G1 X82.746 Y72.453 E43.95675
G1 X82.747 Y72.496 E43.95803
G1 X82.746 Y72.877 E43.96938
G1 X82.747 Y72.920 E43.97066
G1 X82.746 Y73.300 E43.98198
G1 X82.747 Y73.343 E43.98326
G1 X82.746 Y73.723 E43.99458
G1 X82.747 Y73.766 E43.99586
G1 X82.746 Y74.147 E44.00721
G1 X82.747 Y74.190 E44.00849
G1 X82.746 Y74.570 E44.01980
G1 X82.747 Y74.613 E44.02109
G1 X82.746 Y74.993 E44.03240
G1 X82.747 Y75.036 E44.03368
G1 X82.746 Y75.417 E44.04503
G1 X82.747 Y75.460 E44.04631
G1 X82.746 Y75.840 E44.05763
G1 X82.747 Y75.883 E44.05891
G1 X82.746 Y76.263 E44.07023
G1 X82.747 Y76.306 E44.07151
G1 X82.746 Y76.689 E44.08292
G1 X82.765 Y77.199 E44.09812
G1 X82.799 Y77.327 E44.10206
G1 X82.985 Y77.556 E44.11085
G0 F10500 X82.685 Y78.181
;TYPE:SKIN
G1 F1380 X80.183 Y80.683 E44.21623
G0 F10500 X80.422 Y81.151
G1 F1380 X83.152 Y78.420 E44.33124
G0 F10500 X83.814 Y78.466
G1 F1380 X80.468 Y81.812 E44.47218
G0 F10500 X80.387 Y82.600
G1 F1380 X84.601 Y78.387 E44.64965
G0 F10500 X85.465 Y77.522
G1 F1380 X89.330 Y73.657 E44.81244
G0 F10500 X88.915 Y73.365
G1 F1380 X85.540 Y76.740 E44.95460
G0 F10500 X85.547 Y76.025
G1 F1380 X88.579 Y72.994 E45.08228
G0 F10500 X88.387 Y72.479
G1 F1380 X85.547 Y75.319 E45.20191
G0 F10500 X85.546 Y74.613
G1 F1380 X88.289 Y71.870 E45.31744
G0 F10500 X88.304 Y71.148
G1 F1380 X85.547 Y73.905 E45.43357
G0 F10500 X85.546 Y73.198
G1 F1380 X89.802 Y68.942 E45.61283
G0 F10500 X89.697 Y68.341
G1 F1380 X85.546 Y72.491 E45.78765
G0 F10500 X85.547 Y71.784
G1 F1380 X89.130 Y68.200 E45.93859
G0 F10500 X88.425 Y68.198
G1 F1380 X85.541 Y71.082 E46.06006
G0 F10500 X85.518 Y70.398
G1 F1380 X87.720 Y68.196 E46.15281
G0 F10500 X87.015 Y68.194
G1 F1380 X85.373 Y69.835 E46.22195
G0 F10500 X85.775 Y68.727
G1 F1380 X86.304 Y68.198 E46.24423
G0 F10500 X85.226 Y77.529
G0 X84.345 Y78.220
G0 X83.011 Y78.147
G0 X82.319 Y77.265
G0 X82.525 Y69.724
G0 X82.368 Y69.306
G1 F1380 X71.306 Y80.368 E46.71016
G0 F10500 X70.960 Y80.007
G1 F1380 X82.006 Y68.960 E47.17544
G0 F10500 X81.728 Y68.531
G1 F1380 X70.531 Y79.729 E47.64708
G0 F10500 X70.195 Y79.357
G1 F1380 X81.358 Y68.194 E48.11727
G0 F10500 X80.651 Y68.194
G1 F1380 X70.193 Y78.652 E48.55776
G0 F10500 X70.193 Y77.945
G1 F1380 X79.944 Y68.194 E48.96847
G0 F10500 X79.236 Y68.194
G1 F1380 X70.193 Y77.238 E49.34938
G0 F10500 X70.193 Y76.531
G1 F1380 X78.529 Y68.194 E49.70052
G0 F10500 X77.823 Y68.194
G1 F1380 X70.193 Y75.824 E50.02189
G0 F10500 X70.193 Y75.117
G1 F1380 X77.116 Y68.194 E50.31349
G0 F10500 X76.409 Y68.194
G1 F1380 X70.193 Y74.410 E50.57531
G0 F10500 X70.192 Y73.703
G1 F1380 X75.702 Y68.194 E50.80737
G0 F10500 X74.995 Y68.194
G1 F1380 X70.192 Y72.996 E51.00965
G0 F10500 X70.192 Y72.289
G1 F1380 X74.288 Y68.193 E51.18218
G0 F10500 X73.581 Y68.193
G1 F1380 X70.192 Y71.582 E51.32492
G0 F10500 X70.192 Y70.875
G1 F1380 X72.874 Y68.193 E51.43789
G0 F10500 X72.167 Y68.193
G1 F1380 X70.192 Y70.168 E51.52107
G0 F10500 X70.192 Y69.461
G1 F1380 X71.460 Y68.193 E51.57448
G0 F10500 X70.745 Y68.201
G1 F1380 X70.203 Y68.742 E51.59729
G0 F10500 X72.277 Y80.103
G1 F1380 X82.104 Y70.276 E52.01120
G0 F10500 X82.078 Y71.009
G1 F1380 X73.009 Y80.079 E52.39321
G0 F10500 X73.725 Y80.070
G1 F1380 X82.070 Y71.725 E52.74470
G0 F10500 X82.070 Y72.432
G1 F1380 X74.431 Y80.071 E53.06646
G0 F10500 X75.139 Y80.070
G1 F1380 X82.070 Y73.139 E53.35839
G0 F10500 X82.070 Y73.846
G1 F1380 X75.846 Y80.070 E53.62055
G0 F10500 X76.552 Y80.071
G1 F1380 X82.070 Y74.553 E53.85297
G0 F10500 X82.070 Y75.260
G1 F1380 X77.259 Y80.071 E54.05561
G0 F10500 X77.967 Y80.070
G1 F1380 X82.070 Y75.968 E54.22840
G0 F10500 X82.070 Y76.675
G1 F1380 X78.669 Y80.076 E54.37165
G0 F10500 X79.344 Y80.108
G1 F1380 X82.105 Y77.346 E54.48797
G0 F10500 X82.333 Y77.826
G1 F1380 X79.825 Y80.334 E54.59361
G0 F10500 X80.243 Y81.808
G0 X79.875 Y82.953
G0 X79.523 Y83.464
G1 F1380 X75.181 Y87.806 E54.77649
G0 F10500 X75.888 Y87.806
G1 F1380 X89.799 Y73.896 E55.36240
G0 F10500 X88.332 Y76.069
G1 F1380 X76.595 Y87.806 E55.85676
G0 F10500 X77.303 Y87.806
G1 F1380 X88.283 Y76.825 E56.31926
G0 F10500 X88.354 Y77.462
G1 F1380 X78.010 Y87.806 E56.75495
G0 F10500 X78.717 Y87.806
G1 F1380 X88.534 Y77.989 E57.16845
G0 F10500 X88.838 Y78.391
G1 F1380 X79.424 Y87.806 E57.56499
G0 F10500 X78.735 Y83.545
G1 F1380 X74.474 Y87.806 E57.74446
G0 F10500 X73.767 Y87.806
G1 F1380 X78.027 Y83.546 E57.92389
G0 F10500 X77.320 Y83.546
G1 F1380 X73.060 Y87.806 E58.10332
G0 F10500 X72.353 Y87.806
G1 F1380 X76.613 Y83.546 E58.28275
G0 F10500 X75.905 Y83.546
G1 F1380 X71.646 Y87.806 E58.46216
G0 F10500 X70.943 Y87.802
G1 F1380 X75.199 Y83.546 E58.64143
G0 F10500 X74.491 Y83.546
G1 F1380 X70.340 Y87.697 E58.81627
G0 F10500 X70.198 Y87.133
G1 F1380 X73.787 Y83.543 E58.96746
G0 F10500 X73.083 Y83.540
G1 F1380 X70.194 Y86.429 E59.08914
G0 F10500 X70.195 Y85.721
G1 F1380 X72.398 Y83.518 E59.18193
G0 F10500 X71.836 Y83.373
G1 F1380 X70.197 Y85.012 E59.25097
G0 F10500 X70.198 Y84.304
G1 F1380 X70.733 Y83.769 E59.27350
G0 F10500 X80.131 Y87.806
G1 F1380 X89.253 Y78.684 E59.65772
G0 F10500 X89.766 Y78.878
G1 F1380 X80.838 Y87.806 E60.03377
G0 F10500 X81.555 Y87.796
G1 F1380 X81.682 Y87.669 E60.03912
G0 F10500 X82.954 Y86.397
G1 F1380 X88.398 Y80.953 E60.26842
G0 F10500 X88.281 Y81.777
G1 F1380 X83.776 Y86.282 E60.45817
G0 F10500 X84.441 Y86.324
G1 F1380 X88.321 Y82.444 E60.62160
G0 F10500 X88.500 Y82.972
G1 F1380 X84.970 Y86.502 E60.77028
G0 F10500 X85.379 Y86.800
G1 F1380 X88.799 Y83.380 E60.91433
G0 F10500 X89.178 Y83.709
G1 F1380 X85.709 Y87.178 E61.06045
G0 F10500 X85.933 Y87.661
G1 F1380 X89.661 Y83.933 E61.21747
G0 F10500 X89.803 Y84.497
G1 F1380 X86.496 Y87.804 E61.35676
G0 F10500 X87.203 Y87.805
G1 F1380 X89.803 Y85.204 E61.46629
G0 F10500 X89.801 Y85.914
G1 F1380 X87.909 Y87.806 E61.54598
G0 F10500 X88.616 Y87.807
G1 F1380 X89.799 Y86.623 E61.59583
G0 F10500 X89.782 Y87.347
G1 F1380 X89.344 Y87.785 E61.61428
G0 F10500 X88.534 Y81.263
G0 X89.029 Y80.300
G0 X89.666 Y79.685
G1 F1380 X89.803 Y79.548 E61.62005
;LAYER:2
G0 F10500 X89.939 Y79.998 Z1.185
;TYPE:WALL-INNER
G1 F1440 X89.633 Y80.463 E61.63663
G1 X89.543 Y80.929 E61.65077
G1 X89.514 Y81.347 E61.66325
G1 X89.508 Y81.830 E61.67763
G1 X89.541 Y82.678 E61.70291
G1 X89.626 Y83.148 E61.71713
G1 X89.938 Y83.621 E61.73401
G1 X90.385 Y83.808 E61.74844
G1 X90.400 Y84.624 E61.77275
G1 X90.399 Y84.772 E61.77716
G1 X90.400 Y85.047 E61.78535
G1 X90.399 Y85.195 E61.78976
G1 X90.400 Y85.471 E61.79798
G1 X90.399 Y85.619 E61.80238
G1 X90.400 Y85.894 E61.81057
G1 X90.399 Y86.042 E61.81498
G1 X90.400 Y86.317 E61.82317
G1 X90.399 Y86.465 E61.82758
G1 X90.400 Y86.740 E61.83577
G1 X90.392 Y87.252 E61.85102
G1 X90.347 Y87.568 E61.86053
G1 X90.253 Y87.830 E61.86882
G1 X90.076 Y88.068 E61.87765
G1 X89.826 Y88.255 E61.88695
G1 X89.569 Y88.348 E61.89509
G1 X89.256 Y88.393 E61.90451
G1 X88.606 Y88.400 E61.92387
G1 X88.467 Y88.399 E61.92801
G1 X88.189 Y88.400 E61.93629
G1 X88.044 Y88.399 E61.94061
G1 X87.766 Y88.400 E61.94889
G1 X87.621 Y88.399 E61.95321
G1 X87.342 Y88.400 E61.96152
G1 X87.197 Y88.399 E61.96583
G1 X86.919 Y88.400 E61.97411
G1 X86.774 Y88.399 E61.97843
G1 X86.493 Y88.400 E61.98680
G1 X85.955 Y88.398 E62.00283
G1 X85.809 Y88.391 E62.00718
G1 X85.621 Y87.939 E62.02176
G1 X85.156 Y87.633 E62.03834
G1 X84.679 Y87.541 E62.05281
G1 X83.843 Y87.509 E62.07772
G1 X83.301 Y87.519 E62.09387
G1 X82.931 Y87.543 E62.10491
G1 X82.471 Y87.626 E62.11883
G1 X81.998 Y87.938 E62.13571
G1 X81.809 Y88.390 E62.15030
G1 X81.268 Y88.399 E62.16642
G1 X80.992 Y88.400 E62.17464
G1 X80.847 Y88.399 E62.17896
G1 X80.569 Y88.400 E62.18724
G1 X80.424 Y88.399 E62.19155
G1 X80.144 Y88.400 E62.19989
G1 X79.857 Y88.399 E62.20844
G1 X79.579 Y88.400 E62.21672
G1 X79.435 Y88.399 E62.22101
G1 X79.156 Y88.400 E62.22932
G1 X79.012 Y88.399 E62.23361
G1 X78.733 Y88.400 E62.24192
G1 X78.589 Y88.399 E62.24621
G1 X78.309 Y88.400 E62.25455
G1 X78.165 Y88.399 E62.25884
G1 X77.886 Y88.400 E62.26715
G1 X77.742 Y88.399 E62.27143
G1 X77.463 Y88.400 E62.27974
G1 X77.319 Y88.399 E62.28403
G1 X77.039 Y88.400 E62.29237
G1 X76.895 Y88.399 E62.29666
G1 X76.616 Y88.400 E62.30497
G1 X76.472 Y88.399 E62.30926
G1 X76.193 Y88.400 E62.31757
G1 X76.049 Y88.399 E62.32186
G1 X75.769 Y88.400 E62.33020
G1 X75.625 Y88.399 E62.33449
G1 X75.346 Y88.400 E62.34280
G1 X75.202 Y88.399 E62.34709
G1 X74.923 Y88.400 E62.35539
G1 X74.779 Y88.399 E62.35968
G1 X74.499 Y88.400 E62.36802
G1 X74.355 Y88.399 E62.37231
G1 X74.076 Y88.400 E62.38062
G1 X73.932 Y88.399 E62.38491
G1 X73.653 Y88.400 E62.39322
G1 X73.509 Y88.399 E62.39751
G1 X73.229 Y88.400 E62.40585
G1 X73.085 Y88.399 E62.41014
G1 X72.806 Y88.400 E62.41845
G1 X72.662 Y88.399 E62.42274
G1 X72.382 Y88.400 E62.43108
G1 X72.238 Y88.399 E62.43536
G1 X71.959 Y88.400 E62.44367
G1 X71.815 Y88.399 E62.44796
G1 X71.536 Y88.400 E62.45627
G1 X71.392 Y88.399 E62.46056
G1 X71.124 Y88.400 E62.46854
G1 X70.748 Y88.392 E62.47974
G1 X70.432 Y88.347 E62.48925
G1 X70.170 Y88.253 E62.49754
G1 X69.932 Y88.076 E62.50637
G1 X69.745 Y87.826 E62.51567
G1 X69.652 Y87.569 E62.52381
G1 X69.607 Y87.253 E62.53332
G1 X69.600 Y86.894 E62.54401
G1 X69.601 Y86.747 E62.54839
G1 X69.600 Y86.471 E62.55661
G1 X69.601 Y86.324 E62.56099
G1 X69.600 Y86.048 E62.56921
G1 X69.601 Y85.901 E62.57359
G1 X69.600 Y85.625 E62.58181
G1 X69.601 Y85.478 E62.58619
G1 X69.600 Y85.201 E62.59444
G1 X69.601 Y85.054 E62.59882
G1 X69.600 Y84.778 E62.60704
G1 X69.601 Y84.631 E62.61141
G1 X69.600 Y84.360 E62.61949
G1 X69.608 Y83.853 E62.63459
G1 X69.610 Y83.809 E62.63590
G1 X70.061 Y83.621 E62.65045
G1 X70.367 Y83.156 E62.66703
G1 X70.459 Y82.679 E62.68150
G1 X70.492 Y81.830 E62.70681
G1 X70.491 Y81.809 E62.70743
G1 X70.492 Y81.788 E62.70806
G1 X70.459 Y80.941 E62.73330
G1 X70.374 Y80.471 E62.74753
G1 X70.062 Y79.998 E62.76440
G1 X69.610 Y79.809 E62.77900
G1 X69.601 Y79.268 E62.79511
G1 X69.600 Y78.851 E62.80753
G1 X69.601 Y78.704 E62.81191
G1 X69.600 Y78.428 E62.82013
G1 X69.601 Y78.281 E62.82451
G1 X69.600 Y78.005 E62.83273
G1 X69.601 Y77.858 E62.83711
G1 X69.600 Y77.582 E62.84533
G1 X69.601 Y77.435 E62.84970
G1 X69.600 Y77.159 E62.85793
G1 X69.601 Y77.012 E62.86230
G1 X69.600 Y76.736 E62.87052
G1 X69.601 Y76.589 E62.87490
G1 X69.600 Y76.312 E62.88315
G1 X69.601 Y76.165 E62.88753
G1 X69.600 Y75.889 E62.89575
G1 X69.601 Y75.742 E62.90013
G1 X69.600 Y75.466 E62.90835
G1 X69.601 Y75.319 E62.91273
G1 X69.600 Y75.042 E62.92098
G1 X69.601 Y74.895 E62.92536
G1 X69.600 Y74.619 E62.93358
G1 X69.601 Y74.472 E62.93795
G1 X69.600 Y74.196 E62.94617
G1 X69.601 Y74.049 E62.95055
G1 X69.600 Y73.772 E62.95880
G1 X69.601 Y73.625 E62.96318
G1 X69.600 Y73.349 E62.97140
G1 X69.601 Y73.202 E62.97578
G1 X69.600 Y72.926 E62.98400
G1 X69.601 Y72.779 E62.98838
G1 X69.600 Y72.502 E62.99663
G1 X69.601 Y72.355 E63.00101
G1 X69.600 Y72.079 E63.00923
G1 X69.601 Y71.932 E63.01360
G1 X69.600 Y71.656 E63.02183
G1 X69.601 Y71.509 E63.02620
G1 X69.600 Y71.232 E63.03445
G1 X69.601 Y71.085 E63.03883
G1 X69.600 Y70.809 E63.04705
G1 X69.601 Y70.662 E63.05143
G1 X69.600 Y70.385 E63.05968
G1 X69.601 Y70.238 E63.06406
G1 X69.600 Y69.962 E63.07228
G1 X69.601 Y69.815 E63.07666
G1 X69.600 Y69.539 E63.08488
G1 X69.601 Y69.392 E63.08926
G1 X69.600 Y69.127 E63.09715
G1 X69.608 Y68.748 E63.10844
G1 X69.653 Y68.432 E63.11795
G1 X69.747 Y68.170 E63.12624
G1 X69.924 Y67.932 E63.13507
G1 X70.174 Y67.745 E63.14437
G1 X70.431 Y67.652 E63.15251
G1 X70.747 Y67.607 E63.16201
G1 X71.120 Y67.600 E63.17313
G1 X71.253 Y67.601 E63.17709
G1 X71.532 Y67.600 E63.18540
G1 X71.676 Y67.601 E63.18969
G1 X71.955 Y67.600 E63.19799
G1 X72.099 Y67.601 E63.20228
G1 X72.378 Y67.600 E63.21059
G1 X72.522 Y67.601 E63.21488
G1 X72.802 Y67.600 E63.22322
G1 X72.946 Y67.601 E63.22751
G1 X73.225 Y67.600 E63.23582
G1 X73.369 Y67.601 E63.24011
G1 X73.649 Y67.600 E63.24845
G1 X73.793 Y67.601 E63.25274
G1 X74.072 Y67.600 E63.26105
G1 X74.216 Y67.601 E63.26534
G1 X74.495 Y67.600 E63.27365
G1 X74.639 Y67.601 E63.27793
G1 X74.919 Y67.600 E63.28627
G1 X75.063 Y67.601 E63.29056
G1 X75.342 Y67.600 E63.29887
G1 X75.486 Y67.601 E63.30316
G1 X75.765 Y67.600 E63.31147
G1 X75.909 Y67.601 E63.31576
G1 X76.189 Y67.600 E63.32410
G1 X76.333 Y67.601 E63.32839
G1 X76.612 Y67.600 E63.33670
G1 X76.756 Y67.601 E63.34099
G1 X77.035 Y67.600 E63.34930
G1 X77.179 Y67.601 E63.35359
G1 X77.459 Y67.600 E63.36192
G1 X77.603 Y67.601 E63.36621
G1 X77.882 Y67.600 E63.37452
G1 X78.026 Y67.601 E63.37881
G1 X78.305 Y67.600 E63.38712
G1 X78.449 Y67.601 E63.39141
G1 X78.729 Y67.600 E63.39975
G1 X78.873 Y67.601 E63.40404
G1 X79.152 Y67.600 E63.41235
G1 X79.296 Y67.601 E63.41664
G1 X79.575 Y67.600 E63.42495
G1 X79.719 Y67.601 E63.42924
G1 X80.001 Y67.600 E63.43763
G1 X80.423 Y67.601 E63.45020
G1 X80.700 Y67.600 E63.45845
G1 X80.845 Y67.601 E63.46277
G1 X81.123 Y67.600 E63.47105
G1 X81.812 Y67.615 E63.49158
G1 X81.998 Y68.061 E63.50597
G1 X82.463 Y68.367 E63.52255
G1 X82.929 Y68.457 E63.53668
G1 X83.347 Y68.486 E63.54916
G1 X83.830 Y68.492 E63.56355
G1 X84.678 Y68.459 E63.58883
G1 X85.148 Y68.374 E63.60305
G1 X85.621 Y68.062 E63.61993
G1 X85.808 Y67.615 E63.63436
G1 X86.350 Y67.601 E63.65051
G1 X86.627 Y67.600 E63.65876
G1 X86.772 Y67.601 E63.66308
G1 X87.050 Y67.600 E63.67136
G1 X87.195 Y67.601 E63.67567
G1 X87.474 Y67.600 E63.68398
G1 X87.619 Y67.601 E63.68830
G1 X87.897 Y67.600 E63.69658
G1 X88.042 Y67.601 E63.70090
G1 X88.320 Y67.600 E63.70918
G1 X88.465 Y67.601 E63.71350
G1 X88.743 Y67.600 E63.72178
G1 X89.252 Y67.608 E63.73694
G1 X89.568 Y67.653 E63.74645
G1 X89.830 Y67.747 E63.75474
G1 X90.068 Y67.924 E63.76357
G1 X90.255 Y68.174 E63.77287
G1 X90.348 Y68.431 E63.78101
G1 X90.393 Y68.747 E63.79052
G1 X90.400 Y69.125 E63.80178
G1 X90.390 Y69.651 E63.81745
G1 X89.939 Y69.839 E63.83200
G1 X89.633 Y70.304 E63.84858
G1 X89.543 Y70.770 E63.86271
G1 X89.514 Y71.188 E63.87519
G1 X89.508 Y71.672 E63.88961
G1 X89.541 Y72.519 E63.91485
G1 X89.626 Y72.989 E63.92908
G1 X89.938 Y73.462 E63.94596
G1 X90.387 Y73.650 E63.96045
G1 X90.400 Y74.178 E63.97618
G1 X90.391 Y74.704 E63.99185
G1 X90.390 Y74.731 E63.99266
G1 X89.939 Y74.919 E64.00721
G1 X89.633 Y75.384 E64.02379
G1 X89.543 Y75.850 E64.03792
G1 X89.514 Y76.268 E64.05040
G1 X89.508 Y76.752 E64.06482
G1 X89.541 Y77.599 E64.09006
G1 X89.626 Y78.069 E64.10429
G1 X89.938 Y78.542 E64.12117
G1 X90.387 Y78.729 E64.13565
G1 X90.400 Y79.258 E64.15141
G1 X90.385 Y79.812 E64.16792
G1 X89.939 Y79.998 E64.18231
G0 F10500 X90.272 Y80.401
;TYPE:WALL-OUTER
G1 F1320 X90.105 Y80.655 E64.19136
G1 X90.040 Y80.994 E64.20164
G1 X90.009 Y81.790 E64.22537
G1 X90.010 Y81.809 E64.22594
G1 X90.009 Y81.831 E64.22659
G1 X90.039 Y82.621 E64.25014
G1 X90.102 Y82.961 E64.26044
G1 X90.271 Y83.218 E64.26960
G1 X90.513 Y83.319 E64.27741
G1 X90.815 Y83.338 E64.28642
G1 X90.841 Y83.380 E64.28789
G1 X90.879 Y83.591 E64.29428
G1 X90.899 Y84.209 E64.31269
G1 X90.900 Y84.627 E64.32514
G1 X90.899 Y84.773 E64.32949
G1 X90.900 Y85.050 E64.33774
G1 X90.899 Y85.196 E64.34209
G1 X90.900 Y85.474 E64.35037
G1 X90.899 Y85.620 E64.35472
G1 X90.900 Y85.897 E64.36297
G1 X90.899 Y86.043 E64.36732
G1 X90.900 Y86.320 E64.37557
G1 X90.899 Y86.466 E64.37992
G1 X90.900 Y86.743 E64.38817
G1 X90.891 Y87.291 E64.40449
G1 X90.835 Y87.691 E64.41652
G1 X90.700 Y88.066 E64.42839
G1 X90.449 Y88.405 E64.44095
G1 X90.406 Y88.447 E64.44274
G1 X90.067 Y88.700 E64.45534
G1 X89.690 Y88.836 E64.46728
G1 X89.293 Y88.892 E64.47922
G1 X88.609 Y88.900 E64.49959
G1 X88.466 Y88.899 E64.50385
G1 X88.188 Y88.900 E64.51213
G1 X88.043 Y88.899 E64.51645
G1 X87.765 Y88.900 E64.52473
G1 X87.620 Y88.899 E64.52905
G1 X87.341 Y88.900 E64.53736
G1 X87.196 Y88.899 E64.54168
G1 X86.918 Y88.900 E64.54996
G1 X86.773 Y88.899 E64.55427
G1 X86.493 Y88.900 E64.56261
G1 X85.947 Y88.898 E64.57888
G1 X85.591 Y88.880 E64.58949
G1 X85.380 Y88.842 E64.59588
G1 X85.339 Y88.817 E64.59731
G1 X85.319 Y88.515 E64.60632
G1 X85.218 Y88.272 E64.61416
G1 X84.964 Y88.105 E64.62321
G1 X84.622 Y88.039 E64.63359
G1 X83.836 Y88.009 E64.65701
G1 X82.994 Y88.040 E64.68211
G1 X82.658 Y88.102 E64.69228
G1 X82.401 Y88.271 E64.70145
G1 X82.300 Y88.513 E64.70926
G1 X82.281 Y88.815 E64.71827
G1 X82.239 Y88.841 E64.71974
G1 X82.028 Y88.879 E64.72612
G1 X81.408 Y88.899 E64.74460
G1 X80.991 Y88.900 E64.75702
G1 X80.846 Y88.899 E64.76134
G1 X80.568 Y88.900 E64.76962
G1 X80.423 Y88.899 E64.77394
G1 X80.144 Y88.900 E64.78225
G1 X79.857 Y88.899 E64.79079
G1 X79.578 Y88.900 E64.79910
G1 X79.434 Y88.899 E64.80339
G1 X79.155 Y88.900 E64.81170
G1 X79.011 Y88.899 E64.81599
G1 X78.732 Y88.900 E64.82430
G1 X78.588 Y88.899 E64.82859
G1 X78.308 Y88.900 E64.83693
G1 X78.164 Y88.899 E64.84122
G1 X77.885 Y88.900 E64.84953
G1 X77.741 Y88.899 E64.85382
G1 X77.462 Y88.900 E64.86213
G1 X77.318 Y88.899 E64.86641
G1 X77.038 Y88.900 E64.87475
G1 X76.894 Y88.899 E64.87904
G1 X76.615 Y88.900 E64.88735
G1 X76.471 Y88.899 E64.89164
G1 X76.192 Y88.900 E64.89995
G1 X76.048 Y88.899 E64.90424
G1 X75.768 Y88.900 E64.91258
G1 X75.624 Y88.899 E64.91687
G1 X75.345 Y88.900 E64.92518
G1 X75.201 Y88.899 E64.92947
G1 X74.922 Y88.900 E64.93778
G1 X74.778 Y88.899 E64.94207
G1 X74.498 Y88.900 E64.95041
G1 X74.354 Y88.899 E64.95469
G1 X74.075 Y88.900 E64.96300
G1 X73.931 Y88.899 E64.96729
G1 X73.652 Y88.900 E64.97560
G1 X73.508 Y88.899 E64.97989
G1 X73.228 Y88.900 E64.98823
G1 X73.084 Y88.899 E64.99252
G1 X72.805 Y88.900 E65.00083
G1 X72.661 Y88.899 E65.00512
G1 X72.381 Y88.900 E65.01346
G1 X72.237 Y88.899 E65.01775
G1 X71.958 Y88.900 E65.02606
G1 X71.814 Y88.899 E65.03034
G1 X71.535 Y88.900 E65.03865
G1 X71.391 Y88.899 E65.04294
G1 X71.115 Y88.900 E65.05116
G1 X70.710 Y88.891 E65.06323
G1 X70.309 Y88.835 E65.07529
G1 X69.934 Y88.700 E65.08716
G1 X69.595 Y88.449 E65.09972
G1 X69.553 Y88.406 E65.10151
G1 X69.300 Y88.067 E65.11411
G1 X69.164 Y87.690 E65.12605
G1 X69.108 Y87.292 E65.13802
G1 X69.100 Y86.891 E65.14996
G1 X69.101 Y86.746 E65.15428
G1 X69.100 Y86.468 E65.16256
G1 X69.101 Y86.323 E65.16688
G1 X69.100 Y86.045 E65.17516
G1 X69.101 Y85.900 E65.17948
G1 X69.100 Y85.622 E65.18776
G1 X69.101 Y85.477 E65.19208
G1 X69.100 Y85.198 E65.20039
G1 X69.101 Y85.053 E65.20471
G1 X69.100 Y84.775 E65.21298
G1 X69.101 Y84.630 E65.21730
G1 X69.100 Y84.353 E65.22555
G1 X69.109 Y83.826 E65.24125
G1 X69.120 Y83.595 E65.24814
G1 X69.158 Y83.380 E65.25464
G1 X69.183 Y83.339 E65.25607
G1 X69.485 Y83.319 E65.26509
G1 X69.728 Y83.218 E65.27292
G1 X69.895 Y82.964 E65.28198
G1 X69.961 Y82.622 E65.29235
G1 X69.991 Y81.831 E65.31593
G1 X69.990 Y81.809 E65.31658
G1 X69.991 Y81.787 E65.31724
G1 X69.961 Y80.998 E65.34076
G1 X69.898 Y80.658 E65.35105
G1 X69.729 Y80.401 E65.36021
G1 X69.487 Y80.300 E65.36803
G1 X69.185 Y80.281 E65.37704
G1 X69.159 Y80.239 E65.37851
G1 X69.121 Y80.028 E65.38489
G1 X69.101 Y79.410 E65.40331
G1 X69.100 Y78.848 E65.42005
G1 X69.101 Y78.703 E65.42437
G1 X69.100 Y78.425 E65.43265
G1 X69.101 Y78.280 E65.43697
G1 X69.100 Y78.002 E65.44525
G1 X69.101 Y77.857 E65.44956
G1 X69.100 Y77.579 E65.45784
G1 X69.101 Y77.434 E65.46216
G1 X69.100 Y77.156 E65.47044
G1 X69.101 Y77.011 E65.47476
G1 X69.100 Y76.733 E65.48304
